
(==========================)    
(file_name: GCE20220412-174011 Rev01 Test-01)
(==========================)  

(---Description---)
(This program calculates the tool path to ...)
(Assumes climb milling.)

(TOOL/MILL, dia: 1.000, LOC:3.000, 4.0 Flute, carbide, AT)
(--X origin: center of right most post--)
(--Y origin: center of right most post--)
(--Z origin: top surface of vise--)
(Part material: ABS)
(G-code is generated using Python script "SRC20210420001 Rev01-01-10-08 G-code Generator (Draft-01).py")

(---Compiler---)
(UCCNC v1.2111)\n(DEMO_UC400ETH)

(---Change History---)
(NA)    

(---Bug List---)
(NA)

(===General variables===)
(clear z             = 6.000)
(initial x           = 0.000)
(initial y           = 0.000)
(start z             = 0.000)
(terminal x          = 0.000)
(terminal y          = 0.000)
(cut feed            = 181.1)
(plunge feed         = 27.2)
(finish feed         = 108.7)
(spindle speed       = 2900)
(diameter of cutter  = 1.000)
(tolerance of cutter = 0.000)
(effective diameter  = 1.000)
(Surface Speed       = 15 m/min)
(Chipload            = 0.007 mm/tooth)

(start block)
G90			   (Absolute XYZ)
G21G64G17	   (mm, Best Speed Path, XY Plane)
M3 S2900.0      (Spindle Speed)
G0 Z6.0000   (Go to safe height)
G0 X0.0000 Y0.0000   (Rapid to start point)

(===Main Start===)

G0 Z6.0000				(Rapid to safe height)
G0 X6.0000 Y-4.3210                 (Rapid to start point)
G0 Z-6.0000				(Rapid to cutting height)
F181.1     (set cutting feed)

    (---toolpath_data_frame start---)
    (---description---)
    (Imports a 2D dataframe from an excel file, calculates the toolpath adjusted for offset and tool diameter and prints to a txt file the single or trichoidal tool path in G code.)
    (returns last position of cutter and end position of arc.)
    (refer to "ALG20220329001 Toolpath Data Frame Algorithm")
    (start and end points are located at slot arc center points.)
    (assumes that cutter is at cutting depth.)
    (does not return to safe z.)
    (does not set cutting feed.)
    (---parameter---)            
    (cutter diameter: 1.000)        
    (offset: 0.000)
    (excel_file: vector-01.xlsx)
    (sheet: Sheet11)
    
    (---trichoidal linear slot start---)                                                                                                                                                                                                                     
    (---description---)
    (Calculates and prints to a txt file the trichoidal tool path in G code of a straight slot.)                                                                                                         
    (returns last position of cutter and end position of slot)
    (start and end points are located along slot arc center/neutral axis)
    (assumes that cutter is at cutting depth)
    (does NOT return to safe z)
    (---parameters---)                                                                                                          
    (start: X6.000 Y-4.321)
    (end: X0.000 Y-4.321)
    (step over: 0.500)
    (width of slot: 5.300)                                                                                            
    (cutter diameter: 1.000)
    (position of cutter: X6.0000 Y-4.3210)
    (first slot: True)
    (last slot: False)                                                                                                  
    
    G03 X6.0000 Y-2.1710 R1.0750
    
    G1 X5.5000 Y-2.1710
    G03 X5.5000 Y-6.4710 R2.1500
    G1 X6.0000 Y-6.4710
    G03 X6.0000 y-2.1710 R2.1500
    
    G1 X5.0000 Y-2.1710
    G03 X5.0000 Y-6.4710 R2.1500
    G1 X5.5000 Y-6.4710
    G03 X5.5000 y-2.1710 R2.1500
    
    G1 X4.5000 Y-2.1710
    G03 X4.5000 Y-6.4710 R2.1500
    G1 X5.0000 Y-6.4710
    G03 X5.0000 y-2.1710 R2.1500
    
    G1 X4.0000 Y-2.1710
    G03 X4.0000 Y-6.4710 R2.1500
    G1 X4.5000 Y-6.4710
    G03 X4.5000 y-2.1710 R2.1500
    
    G1 X3.5000 Y-2.1710
    G03 X3.5000 Y-6.4710 R2.1500
    G1 X4.0000 Y-6.4710
    G03 X4.0000 y-2.1710 R2.1500
    
    G1 X3.0000 Y-2.1710
    G03 X3.0000 Y-6.4710 R2.1500
    G1 X3.5000 Y-6.4710
    G03 X3.5000 y-2.1710 R2.1500
    
    G1 X2.5000 Y-2.1710
    G03 X2.5000 Y-6.4710 R2.1500
    G1 X3.0000 Y-6.4710
    G03 X3.0000 y-2.1710 R2.1500
    
    G1 X2.0000 Y-2.1710
    G03 X2.0000 Y-6.4710 R2.1500
    G1 X2.5000 Y-6.4710
    G03 X2.5000 y-2.1710 R2.1500
    
    G1 X1.5000 Y-2.1710
    G03 X1.5000 Y-6.4710 R2.1500
    G1 X2.0000 Y-6.4710
    G03 X2.0000 y-2.1710 R2.1500
    
    G1 X1.0000 Y-2.1710
    G03 X1.0000 Y-6.4710 R2.1500
    G1 X1.5000 Y-6.4710
    G03 X1.5000 y-2.1710 R2.1500
    
    G1 X0.5000 Y-2.1710
    G03 X0.5000 Y-6.4710 R2.1500
    G1 X1.0000 Y-6.4710
    G03 X1.0000 y-2.1710 R2.1500
    
    G1 X-0.0000 Y-2.1710
    G03 X0.0000 Y-6.4710 R2.1500
    G1 X0.5000 Y-6.4710
    G03 X0.5000 y-2.1710 R2.1500
    G1 X-0.0000 Y-2.1710
    (---trichoidal linear slot end---)
    
    (---trichoidal linear slot start---)                                                                                                                                                                                                                     
    (---description---)
    (Calculates and prints to a txt file the trichoidal tool path in G code of a straight slot.)                                                                                                         
    (returns last position of cutter and end position of slot)
    (start and end points are located along slot arc center/neutral axis)
    (assumes that cutter is at cutting depth)
    (does NOT return to safe z)
    (---parameters---)                                                                                                          
    (start: X0.000 Y-4.321)
    (end: X-20.000 Y-4.321)
    (step over: 0.500)
    (width of slot: 5.300)                                                                                            
    (cutter diameter: 1.000)
    (position of cutter: X-0.0000 Y-2.1710)
    (first slot: False)
    (last slot: False)                                                                                                  
    
    G1 X-0.5000 Y-2.1710
    G03 X-0.5000 Y-6.4710 R2.1500
    G1 X-0.0000 Y-6.4710
    G03 X0.0000 y-2.1710 R2.1500
    
    G1 X-1.0000 Y-2.1710
    G03 X-1.0000 Y-6.4710 R2.1500
    G1 X-0.5000 Y-6.4710
    G03 X-0.5000 y-2.1710 R2.1500
    
    G1 X-1.5000 Y-2.1710
    G03 X-1.5000 Y-6.4710 R2.1500
    G1 X-1.0000 Y-6.4710
    G03 X-1.0000 y-2.1710 R2.1500
    
    G1 X-2.0000 Y-2.1710
    G03 X-2.0000 Y-6.4710 R2.1500
    G1 X-1.5000 Y-6.4710
    G03 X-1.5000 y-2.1710 R2.1500
    
    G1 X-2.5000 Y-2.1710
    G03 X-2.5000 Y-6.4710 R2.1500
    G1 X-2.0000 Y-6.4710
    G03 X-2.0000 y-2.1710 R2.1500
    
    G1 X-3.0000 Y-2.1710
    G03 X-3.0000 Y-6.4710 R2.1500
    G1 X-2.5000 Y-6.4710
    G03 X-2.5000 y-2.1710 R2.1500
    
    G1 X-3.5000 Y-2.1710
    G03 X-3.5000 Y-6.4710 R2.1500
    G1 X-3.0000 Y-6.4710
    G03 X-3.0000 y-2.1710 R2.1500
    
    G1 X-4.0000 Y-2.1710
    G03 X-4.0000 Y-6.4710 R2.1500
    G1 X-3.5000 Y-6.4710
    G03 X-3.5000 y-2.1710 R2.1500
    
    G1 X-4.5000 Y-2.1710
    G03 X-4.5000 Y-6.4710 R2.1500
    G1 X-4.0000 Y-6.4710
    G03 X-4.0000 y-2.1710 R2.1500
    
    G1 X-5.0000 Y-2.1710
    G03 X-5.0000 Y-6.4710 R2.1500
    G1 X-4.5000 Y-6.4710
    G03 X-4.5000 y-2.1710 R2.1500
    
    G1 X-5.5000 Y-2.1710
    G03 X-5.5000 Y-6.4710 R2.1500
    G1 X-5.0000 Y-6.4710
    G03 X-5.0000 y-2.1710 R2.1500
    
    G1 X-6.0000 Y-2.1710
    G03 X-6.0000 Y-6.4710 R2.1500
    G1 X-5.5000 Y-6.4710
    G03 X-5.5000 y-2.1710 R2.1500
    
    G1 X-6.5000 Y-2.1710
    G03 X-6.5000 Y-6.4710 R2.1500
    G1 X-6.0000 Y-6.4710
    G03 X-6.0000 y-2.1710 R2.1500
    
    G1 X-7.0000 Y-2.1710
    G03 X-7.0000 Y-6.4710 R2.1500
    G1 X-6.5000 Y-6.4710
    G03 X-6.5000 y-2.1710 R2.1500
    
    G1 X-7.5000 Y-2.1710
    G03 X-7.5000 Y-6.4710 R2.1500
    G1 X-7.0000 Y-6.4710
    G03 X-7.0000 y-2.1710 R2.1500
    
    G1 X-8.0000 Y-2.1710
    G03 X-8.0000 Y-6.4710 R2.1500
    G1 X-7.5000 Y-6.4710
    G03 X-7.5000 y-2.1710 R2.1500
    
    G1 X-8.5000 Y-2.1710
    G03 X-8.5000 Y-6.4710 R2.1500
    G1 X-8.0000 Y-6.4710
    G03 X-8.0000 y-2.1710 R2.1500
    
    G1 X-9.0000 Y-2.1710
    G03 X-9.0000 Y-6.4710 R2.1500
    G1 X-8.5000 Y-6.4710
    G03 X-8.5000 y-2.1710 R2.1500
    
    G1 X-9.5000 Y-2.1710
    G03 X-9.5000 Y-6.4710 R2.1500
    G1 X-9.0000 Y-6.4710
    G03 X-9.0000 y-2.1710 R2.1500
    
    G1 X-10.0000 Y-2.1710
    G03 X-10.0000 Y-6.4710 R2.1500
    G1 X-9.5000 Y-6.4710
    G03 X-9.5000 y-2.1710 R2.1500
    
    G1 X-10.5000 Y-2.1710
    G03 X-10.5000 Y-6.4710 R2.1500
    G1 X-10.0000 Y-6.4710
    G03 X-10.0000 y-2.1710 R2.1500
    
    G1 X-11.0000 Y-2.1710
    G03 X-11.0000 Y-6.4710 R2.1500
    G1 X-10.5000 Y-6.4710
    G03 X-10.5000 y-2.1710 R2.1500
    
    G1 X-11.5000 Y-2.1710
    G03 X-11.5000 Y-6.4710 R2.1500
    G1 X-11.0000 Y-6.4710
    G03 X-11.0000 y-2.1710 R2.1500
    
    G1 X-12.0000 Y-2.1710
    G03 X-12.0000 Y-6.4710 R2.1500
    G1 X-11.5000 Y-6.4710
    G03 X-11.5000 y-2.1710 R2.1500
    
    G1 X-12.5000 Y-2.1710
    G03 X-12.5000 Y-6.4710 R2.1500
    G1 X-12.0000 Y-6.4710
    G03 X-12.0000 y-2.1710 R2.1500
    
    G1 X-13.0000 Y-2.1710
    G03 X-13.0000 Y-6.4710 R2.1500
    G1 X-12.5000 Y-6.4710
    G03 X-12.5000 y-2.1710 R2.1500
    
    G1 X-13.5000 Y-2.1710
    G03 X-13.5000 Y-6.4710 R2.1500
    G1 X-13.0000 Y-6.4710
    G03 X-13.0000 y-2.1710 R2.1500
    
    G1 X-14.0000 Y-2.1710
    G03 X-14.0000 Y-6.4710 R2.1500
    G1 X-13.5000 Y-6.4710
    G03 X-13.5000 y-2.1710 R2.1500
    
    G1 X-14.5000 Y-2.1710
    G03 X-14.5000 Y-6.4710 R2.1500
    G1 X-14.0000 Y-6.4710
    G03 X-14.0000 y-2.1710 R2.1500
    
    G1 X-15.0000 Y-2.1710
    G03 X-15.0000 Y-6.4710 R2.1500
    G1 X-14.5000 Y-6.4710
    G03 X-14.5000 y-2.1710 R2.1500
    
    G1 X-15.5000 Y-2.1710
    G03 X-15.5000 Y-6.4710 R2.1500
    G1 X-15.0000 Y-6.4710
    G03 X-15.0000 y-2.1710 R2.1500
    
    G1 X-16.0000 Y-2.1710
    G03 X-16.0000 Y-6.4710 R2.1500
    G1 X-15.5000 Y-6.4710
    G03 X-15.5000 y-2.1710 R2.1500
    
    G1 X-16.5000 Y-2.1710
    G03 X-16.5000 Y-6.4710 R2.1500
    G1 X-16.0000 Y-6.4710
    G03 X-16.0000 y-2.1710 R2.1500
    
    G1 X-17.0000 Y-2.1710
    G03 X-17.0000 Y-6.4710 R2.1500
    G1 X-16.5000 Y-6.4710
    G03 X-16.5000 y-2.1710 R2.1500
    
    G1 X-17.5000 Y-2.1710
    G03 X-17.5000 Y-6.4710 R2.1500
    G1 X-17.0000 Y-6.4710
    G03 X-17.0000 y-2.1710 R2.1500
    
    G1 X-18.0000 Y-2.1710
    G03 X-18.0000 Y-6.4710 R2.1500
    G1 X-17.5000 Y-6.4710
    G03 X-17.5000 y-2.1710 R2.1500
    
    G1 X-18.5000 Y-2.1710
    G03 X-18.5000 Y-6.4710 R2.1500
    G1 X-18.0000 Y-6.4710
    G03 X-18.0000 y-2.1710 R2.1500
    
    G1 X-19.0000 Y-2.1710
    G03 X-19.0000 Y-6.4710 R2.1500
    G1 X-18.5000 Y-6.4710
    G03 X-18.5000 y-2.1710 R2.1500
    
    G1 X-19.5000 Y-2.1710
    G03 X-19.5000 Y-6.4710 R2.1500
    G1 X-19.0000 Y-6.4710
    G03 X-19.0000 y-2.1710 R2.1500
    
    G1 X-20.0000 Y-2.1710
    G03 X-20.0000 Y-6.4710 R2.1500
    G1 X-19.5000 Y-6.4710
    G03 X-19.5000 y-2.1710 R2.1500
    G1 X-20.0000 Y-2.1710
    (---trichoidal linear slot end---)
    
    (---trichoidal linear slot start---)                                                                                                                                                                                                                     
    (---description---)
    (Calculates and prints to a txt file the trichoidal tool path in G code of a straight slot.)                                                                                                         
    (returns last position of cutter and end position of slot)
    (start and end points are located along slot arc center/neutral axis)
    (assumes that cutter is at cutting depth)
    (does NOT return to safe z)
    (---parameters---)                                                                                                          
    (start: X-20.000 Y-4.321)
    (end: X-20.000 Y-9.321)
    (step over: 0.500)
    (width of slot: 5.300)                                                                                            
    (cutter diameter: 1.000)
    (position of cutter: X-20.0000 Y-2.1710)
    (first slot: False)
    (last slot: False)                                                                                                  
    
    G03 X-22.1500 Y-4.3210 I0.0000 J-2.1500
    
    G1 X-22.1500 Y-4.8210
    G03 X-17.8500 Y-4.8210 R2.1500
    G1 X-17.8500 Y-4.3210
    G03 X-22.1500 y-4.3210 R2.1500
    
    G1 X-22.1500 Y-5.3210
    G03 X-17.8500 Y-5.3210 R2.1500
    G1 X-17.8500 Y-4.8210
    G03 X-22.1500 y-4.8210 R2.1500
    
    G1 X-22.1500 Y-5.8210
    G03 X-17.8500 Y-5.8210 R2.1500
    G1 X-17.8500 Y-5.3210
    G03 X-22.1500 y-5.3210 R2.1500
    
    G1 X-22.1500 Y-6.3210
    G03 X-17.8500 Y-6.3210 R2.1500
    G1 X-17.8500 Y-5.8210
    G03 X-22.1500 y-5.8210 R2.1500
    
    G1 X-22.1500 Y-6.8210
    G03 X-17.8500 Y-6.8210 R2.1500
    G1 X-17.8500 Y-6.3210
    G03 X-22.1500 y-6.3210 R2.1500
    
    G1 X-22.1500 Y-7.3210
    G03 X-17.8500 Y-7.3210 R2.1500
    G1 X-17.8500 Y-6.8210
    G03 X-22.1500 y-6.8210 R2.1500
    
    G1 X-22.1500 Y-7.8210
    G03 X-17.8500 Y-7.8210 R2.1500
    G1 X-17.8500 Y-7.3210
    G03 X-22.1500 y-7.3210 R2.1500
    
    G1 X-22.1500 Y-8.3210
    G03 X-17.8500 Y-8.3210 R2.1500
    G1 X-17.8500 Y-7.8210
    G03 X-22.1500 y-7.8210 R2.1500
    
    G1 X-22.1500 Y-8.8210
    G03 X-17.8500 Y-8.8210 R2.1500
    G1 X-17.8500 Y-8.3210
    G03 X-22.1500 y-8.3210 R2.1500
    
    G1 X-22.1500 Y-9.3210
    G03 X-17.8500 Y-9.3210 R2.1500
    G1 X-17.8500 Y-8.8210
    G03 X-22.1500 y-8.8210 R2.1500
    G1 X-22.1500 Y-9.3210
    (---trichoidal linear slot end---)
    
    (---trichoidal linear slot start---)                                                                                                                                                                                                                     
    (---description---)
    (Calculates and prints to a txt file the trichoidal tool path in G code of a straight slot.)                                                                                                         
    (returns last position of cutter and end position of slot)
    (start and end points are located along slot arc center/neutral axis)
    (assumes that cutter is at cutting depth)
    (does NOT return to safe z)
    (---parameters---)                                                                                                          
    (start: X-20.000 Y-9.321)
    (end: X0.000 Y-9.321)
    (step over: 0.500)
    (width of slot: 5.300)                                                                                            
    (cutter diameter: 1.000)
    (position of cutter: X-22.1500 Y-9.3210)
    (first slot: False)
    (last slot: False)                                                                                                  
    
    G03 X-20.0000 Y-11.4710 I2.1500 J-0.0000
    
    G1 X-19.5000 Y-11.4710
    G03 X-19.5000 Y-7.1710 R2.1500
    G1 X-20.0000 Y-7.1710
    G03 X-20.0000 y-11.4710 R2.1500
    
    G1 X-19.0000 Y-11.4710
    G03 X-19.0000 Y-7.1710 R2.1500
    G1 X-19.5000 Y-7.1710
    G03 X-19.5000 y-11.4710 R2.1500
    
    G1 X-18.5000 Y-11.4710
    G03 X-18.5000 Y-7.1710 R2.1500
    G1 X-19.0000 Y-7.1710
    G03 X-19.0000 y-11.4710 R2.1500
    
    G1 X-18.0000 Y-11.4710
    G03 X-18.0000 Y-7.1710 R2.1500
    G1 X-18.5000 Y-7.1710
    G03 X-18.5000 y-11.4710 R2.1500
    
    G1 X-17.5000 Y-11.4710
    G03 X-17.5000 Y-7.1710 R2.1500
    G1 X-18.0000 Y-7.1710
    G03 X-18.0000 y-11.4710 R2.1500
    
    G1 X-17.0000 Y-11.4710
    G03 X-17.0000 Y-7.1710 R2.1500
    G1 X-17.5000 Y-7.1710
    G03 X-17.5000 y-11.4710 R2.1500
    
    G1 X-16.5000 Y-11.4710
    G03 X-16.5000 Y-7.1710 R2.1500
    G1 X-17.0000 Y-7.1710
    G03 X-17.0000 y-11.4710 R2.1500
    
    G1 X-16.0000 Y-11.4710
    G03 X-16.0000 Y-7.1710 R2.1500
    G1 X-16.5000 Y-7.1710
    G03 X-16.5000 y-11.4710 R2.1500
    
    G1 X-15.5000 Y-11.4710
    G03 X-15.5000 Y-7.1710 R2.1500
    G1 X-16.0000 Y-7.1710
    G03 X-16.0000 y-11.4710 R2.1500
    
    G1 X-15.0000 Y-11.4710
    G03 X-15.0000 Y-7.1710 R2.1500
    G1 X-15.5000 Y-7.1710
    G03 X-15.5000 y-11.4710 R2.1500
    
    G1 X-14.5000 Y-11.4710
    G03 X-14.5000 Y-7.1710 R2.1500
    G1 X-15.0000 Y-7.1710
    G03 X-15.0000 y-11.4710 R2.1500
    
    G1 X-14.0000 Y-11.4710
    G03 X-14.0000 Y-7.1710 R2.1500
    G1 X-14.5000 Y-7.1710
    G03 X-14.5000 y-11.4710 R2.1500
    
    G1 X-13.5000 Y-11.4710
    G03 X-13.5000 Y-7.1710 R2.1500
    G1 X-14.0000 Y-7.1710
    G03 X-14.0000 y-11.4710 R2.1500
    
    G1 X-13.0000 Y-11.4710
    G03 X-13.0000 Y-7.1710 R2.1500
    G1 X-13.5000 Y-7.1710
    G03 X-13.5000 y-11.4710 R2.1500
    
    G1 X-12.5000 Y-11.4710
    G03 X-12.5000 Y-7.1710 R2.1500
    G1 X-13.0000 Y-7.1710
    G03 X-13.0000 y-11.4710 R2.1500
    
    G1 X-12.0000 Y-11.4710
    G03 X-12.0000 Y-7.1710 R2.1500
    G1 X-12.5000 Y-7.1710
    G03 X-12.5000 y-11.4710 R2.1500
    
    G1 X-11.5000 Y-11.4710
    G03 X-11.5000 Y-7.1710 R2.1500
    G1 X-12.0000 Y-7.1710
    G03 X-12.0000 y-11.4710 R2.1500
    
    G1 X-11.0000 Y-11.4710
    G03 X-11.0000 Y-7.1710 R2.1500
    G1 X-11.5000 Y-7.1710
    G03 X-11.5000 y-11.4710 R2.1500
    
    G1 X-10.5000 Y-11.4710
    G03 X-10.5000 Y-7.1710 R2.1500
    G1 X-11.0000 Y-7.1710
    G03 X-11.0000 y-11.4710 R2.1500
    
    G1 X-10.0000 Y-11.4710
    G03 X-10.0000 Y-7.1710 R2.1500
    G1 X-10.5000 Y-7.1710
    G03 X-10.5000 y-11.4710 R2.1500
    
    G1 X-9.5000 Y-11.4710
    G03 X-9.5000 Y-7.1710 R2.1500
    G1 X-10.0000 Y-7.1710
    G03 X-10.0000 y-11.4710 R2.1500
    
    G1 X-9.0000 Y-11.4710
    G03 X-9.0000 Y-7.1710 R2.1500
    G1 X-9.5000 Y-7.1710
    G03 X-9.5000 y-11.4710 R2.1500
    
    G1 X-8.5000 Y-11.4710
    G03 X-8.5000 Y-7.1710 R2.1500
    G1 X-9.0000 Y-7.1710
    G03 X-9.0000 y-11.4710 R2.1500
    
    G1 X-8.0000 Y-11.4710
    G03 X-8.0000 Y-7.1710 R2.1500
    G1 X-8.5000 Y-7.1710
    G03 X-8.5000 y-11.4710 R2.1500
    
    G1 X-7.5000 Y-11.4710
    G03 X-7.5000 Y-7.1710 R2.1500
    G1 X-8.0000 Y-7.1710
    G03 X-8.0000 y-11.4710 R2.1500
    
    G1 X-7.0000 Y-11.4710
    G03 X-7.0000 Y-7.1710 R2.1500
    G1 X-7.5000 Y-7.1710
    G03 X-7.5000 y-11.4710 R2.1500
    
    G1 X-6.5000 Y-11.4710
    G03 X-6.5000 Y-7.1710 R2.1500
    G1 X-7.0000 Y-7.1710
    G03 X-7.0000 y-11.4710 R2.1500
    
    G1 X-6.0000 Y-11.4710
    G03 X-6.0000 Y-7.1710 R2.1500
    G1 X-6.5000 Y-7.1710
    G03 X-6.5000 y-11.4710 R2.1500
    
    G1 X-5.5000 Y-11.4710
    G03 X-5.5000 Y-7.1710 R2.1500
    G1 X-6.0000 Y-7.1710
    G03 X-6.0000 y-11.4710 R2.1500
    
    G1 X-5.0000 Y-11.4710
    G03 X-5.0000 Y-7.1710 R2.1500
    G1 X-5.5000 Y-7.1710
    G03 X-5.5000 y-11.4710 R2.1500
    
    G1 X-4.5000 Y-11.4710
    G03 X-4.5000 Y-7.1710 R2.1500
    G1 X-5.0000 Y-7.1710
    G03 X-5.0000 y-11.4710 R2.1500
    
    G1 X-4.0000 Y-11.4710
    G03 X-4.0000 Y-7.1710 R2.1500
    G1 X-4.5000 Y-7.1710
    G03 X-4.5000 y-11.4710 R2.1500
    
    G1 X-3.5000 Y-11.4710
    G03 X-3.5000 Y-7.1710 R2.1500
    G1 X-4.0000 Y-7.1710
    G03 X-4.0000 y-11.4710 R2.1500
    
    G1 X-3.0000 Y-11.4710
    G03 X-3.0000 Y-7.1710 R2.1500
    G1 X-3.5000 Y-7.1710
    G03 X-3.5000 y-11.4710 R2.1500
    
    G1 X-2.5000 Y-11.4710
    G03 X-2.5000 Y-7.1710 R2.1500
    G1 X-3.0000 Y-7.1710
    G03 X-3.0000 y-11.4710 R2.1500
    
    G1 X-2.0000 Y-11.4710
    G03 X-2.0000 Y-7.1710 R2.1500
    G1 X-2.5000 Y-7.1710
    G03 X-2.5000 y-11.4710 R2.1500
    
    G1 X-1.5000 Y-11.4710
    G03 X-1.5000 Y-7.1710 R2.1500
    G1 X-2.0000 Y-7.1710
    G03 X-2.0000 y-11.4710 R2.1500
    
    G1 X-1.0000 Y-11.4710
    G03 X-1.0000 Y-7.1710 R2.1500
    G1 X-1.5000 Y-7.1710
    G03 X-1.5000 y-11.4710 R2.1500
    
    G1 X-0.5000 Y-11.4710
    G03 X-0.5000 Y-7.1710 R2.1500
    G1 X-1.0000 Y-7.1710
    G03 X-1.0000 y-11.4710 R2.1500
    
    G1 X0.0000 Y-11.4710
    G03 X0.0000 Y-7.1710 R2.1500
    G1 X-0.5000 Y-7.1710
    G03 X-0.5000 y-11.4710 R2.1500
    G1 X0.0000 Y-11.4710
    (---trichoidal linear slot end---)
    
    (---trichoidal linear slot start---)                                                                                                                                                                                                                     
    (---description---)
    (Calculates and prints to a txt file the trichoidal tool path in G code of a straight slot.)                                                                                                         
    (returns last position of cutter and end position of slot)
    (start and end points are located along slot arc center/neutral axis)
    (assumes that cutter is at cutting depth)
    (does NOT return to safe z)
    (---parameters---)                                                                                                          
    (start: X0.000 Y-9.321)
    (end: X0.000 Y-15.321)
    (step over: 0.500)
    (width of slot: 5.300)                                                                                            
    (cutter diameter: 1.000)
    (position of cutter: X0.0000 Y-11.4710)
    (first slot: False)
    (last slot: False)                                                                                                  
    
    G03 X-2.1500 Y-9.3210 I0.0000 J2.1500
    
    G1 X-2.1500 Y-9.8210
    G03 X2.1500 Y-9.8210 R2.1500
    G1 X2.1500 Y-9.3210
    G03 X-2.1500 y-9.3210 R2.1500
    
    G1 X-2.1500 Y-10.3210
    G03 X2.1500 Y-10.3210 R2.1500
    G1 X2.1500 Y-9.8210
    G03 X-2.1500 y-9.8210 R2.1500
    
    G1 X-2.1500 Y-10.8210
    G03 X2.1500 Y-10.8210 R2.1500
    G1 X2.1500 Y-10.3210
    G03 X-2.1500 y-10.3210 R2.1500
    
    G1 X-2.1500 Y-11.3210
    G03 X2.1500 Y-11.3210 R2.1500
    G1 X2.1500 Y-10.8210
    G03 X-2.1500 y-10.8210 R2.1500
    
    G1 X-2.1500 Y-11.8210
    G03 X2.1500 Y-11.8210 R2.1500
    G1 X2.1500 Y-11.3210
    G03 X-2.1500 y-11.3210 R2.1500
    
    G1 X-2.1500 Y-12.3210
    G03 X2.1500 Y-12.3210 R2.1500
    G1 X2.1500 Y-11.8210
    G03 X-2.1500 y-11.8210 R2.1500
    
    G1 X-2.1500 Y-12.8210
    G03 X2.1500 Y-12.8210 R2.1500
    G1 X2.1500 Y-12.3210
    G03 X-2.1500 y-12.3210 R2.1500
    
    G1 X-2.1500 Y-13.3210
    G03 X2.1500 Y-13.3210 R2.1500
    G1 X2.1500 Y-12.8210
    G03 X-2.1500 y-12.8210 R2.1500
    
    G1 X-2.1500 Y-13.8210
    G03 X2.1500 Y-13.8210 R2.1500
    G1 X2.1500 Y-13.3210
    G03 X-2.1500 y-13.3210 R2.1500
    
    G1 X-2.1500 Y-14.3210
    G03 X2.1500 Y-14.3210 R2.1500
    G1 X2.1500 Y-13.8210
    G03 X-2.1500 y-13.8210 R2.1500
    
    G1 X-2.1500 Y-14.8210
    G03 X2.1500 Y-14.8210 R2.1500
    G1 X2.1500 Y-14.3210
    G03 X-2.1500 y-14.3210 R2.1500
    
    G1 X-2.1500 Y-15.3210
    G03 X2.1500 Y-15.3210 R2.1500
    G1 X2.1500 Y-14.8210
    G03 X-2.1500 y-14.8210 R2.1500
    G1 X-2.1500 Y-15.3210
    (---trichoidal linear slot end---)
    
    (---trichoidal linear slot start---)                                                                                                                                                                                                                     
    (---description---)
    (Calculates and prints to a txt file the trichoidal tool path in G code of a straight slot.)                                                                                                         
    (returns last position of cutter and end position of slot)
    (start and end points are located along slot arc center/neutral axis)
    (assumes that cutter is at cutting depth)
    (does NOT return to safe z)
    (---parameters---)                                                                                                          
    (start: X0.000 Y-15.321)
    (end: X-20.000 Y-15.321)
    (step over: 0.500)
    (width of slot: 5.300)                                                                                            
    (cutter diameter: 1.000)
    (position of cutter: X-2.1500 Y-15.3210)
    (first slot: False)
    (last slot: False)                                                                                                  
    
    G03 X0.0000 Y-13.1710 I2.1500 J0.0000
    
    G1 X-0.5000 Y-13.1710
    G03 X-0.5000 Y-17.4710 R2.1500
    G1 X-0.0000 Y-17.4710
    G03 X0.0000 y-13.1710 R2.1500
    
    G1 X-1.0000 Y-13.1710
    G03 X-1.0000 Y-17.4710 R2.1500
    G1 X-0.5000 Y-17.4710
    G03 X-0.5000 y-13.1710 R2.1500
    
    G1 X-1.5000 Y-13.1710
    G03 X-1.5000 Y-17.4710 R2.1500
    G1 X-1.0000 Y-17.4710
    G03 X-1.0000 y-13.1710 R2.1500
    
    G1 X-2.0000 Y-13.1710
    G03 X-2.0000 Y-17.4710 R2.1500
    G1 X-1.5000 Y-17.4710
    G03 X-1.5000 y-13.1710 R2.1500
    
    G1 X-2.5000 Y-13.1710
    G03 X-2.5000 Y-17.4710 R2.1500
    G1 X-2.0000 Y-17.4710
    G03 X-2.0000 y-13.1710 R2.1500
    
    G1 X-3.0000 Y-13.1710
    G03 X-3.0000 Y-17.4710 R2.1500
    G1 X-2.5000 Y-17.4710
    G03 X-2.5000 y-13.1710 R2.1500
    
    G1 X-3.5000 Y-13.1710
    G03 X-3.5000 Y-17.4710 R2.1500
    G1 X-3.0000 Y-17.4710
    G03 X-3.0000 y-13.1710 R2.1500
    
    G1 X-4.0000 Y-13.1710
    G03 X-4.0000 Y-17.4710 R2.1500
    G1 X-3.5000 Y-17.4710
    G03 X-3.5000 y-13.1710 R2.1500
    
    G1 X-4.5000 Y-13.1710
    G03 X-4.5000 Y-17.4710 R2.1500
    G1 X-4.0000 Y-17.4710
    G03 X-4.0000 y-13.1710 R2.1500
    
    G1 X-5.0000 Y-13.1710
    G03 X-5.0000 Y-17.4710 R2.1500
    G1 X-4.5000 Y-17.4710
    G03 X-4.5000 y-13.1710 R2.1500
    
    G1 X-5.5000 Y-13.1710
    G03 X-5.5000 Y-17.4710 R2.1500
    G1 X-5.0000 Y-17.4710
    G03 X-5.0000 y-13.1710 R2.1500
    
    G1 X-6.0000 Y-13.1710
    G03 X-6.0000 Y-17.4710 R2.1500
    G1 X-5.5000 Y-17.4710
    G03 X-5.5000 y-13.1710 R2.1500
    
    G1 X-6.5000 Y-13.1710
    G03 X-6.5000 Y-17.4710 R2.1500
    G1 X-6.0000 Y-17.4710
    G03 X-6.0000 y-13.1710 R2.1500
    
    G1 X-7.0000 Y-13.1710
    G03 X-7.0000 Y-17.4710 R2.1500
    G1 X-6.5000 Y-17.4710
    G03 X-6.5000 y-13.1710 R2.1500
    
    G1 X-7.5000 Y-13.1710
    G03 X-7.5000 Y-17.4710 R2.1500
    G1 X-7.0000 Y-17.4710
    G03 X-7.0000 y-13.1710 R2.1500
    
    G1 X-8.0000 Y-13.1710
    G03 X-8.0000 Y-17.4710 R2.1500
    G1 X-7.5000 Y-17.4710
    G03 X-7.5000 y-13.1710 R2.1500
    
    G1 X-8.5000 Y-13.1710
    G03 X-8.5000 Y-17.4710 R2.1500
    G1 X-8.0000 Y-17.4710
    G03 X-8.0000 y-13.1710 R2.1500
    
    G1 X-9.0000 Y-13.1710
    G03 X-9.0000 Y-17.4710 R2.1500
    G1 X-8.5000 Y-17.4710
    G03 X-8.5000 y-13.1710 R2.1500
    
    G1 X-9.5000 Y-13.1710
    G03 X-9.5000 Y-17.4710 R2.1500
    G1 X-9.0000 Y-17.4710
    G03 X-9.0000 y-13.1710 R2.1500
    
    G1 X-10.0000 Y-13.1710
    G03 X-10.0000 Y-17.4710 R2.1500
    G1 X-9.5000 Y-17.4710
    G03 X-9.5000 y-13.1710 R2.1500
    
    G1 X-10.5000 Y-13.1710
    G03 X-10.5000 Y-17.4710 R2.1500
    G1 X-10.0000 Y-17.4710
    G03 X-10.0000 y-13.1710 R2.1500
    
    G1 X-11.0000 Y-13.1710
    G03 X-11.0000 Y-17.4710 R2.1500
    G1 X-10.5000 Y-17.4710
    G03 X-10.5000 y-13.1710 R2.1500
    
    G1 X-11.5000 Y-13.1710
    G03 X-11.5000 Y-17.4710 R2.1500
    G1 X-11.0000 Y-17.4710
    G03 X-11.0000 y-13.1710 R2.1500
    
    G1 X-12.0000 Y-13.1710
    G03 X-12.0000 Y-17.4710 R2.1500
    G1 X-11.5000 Y-17.4710
    G03 X-11.5000 y-13.1710 R2.1500
    
    G1 X-12.5000 Y-13.1710
    G03 X-12.5000 Y-17.4710 R2.1500
    G1 X-12.0000 Y-17.4710
    G03 X-12.0000 y-13.1710 R2.1500
    
    G1 X-13.0000 Y-13.1710
    G03 X-13.0000 Y-17.4710 R2.1500
    G1 X-12.5000 Y-17.4710
    G03 X-12.5000 y-13.1710 R2.1500
    
    G1 X-13.5000 Y-13.1710
    G03 X-13.5000 Y-17.4710 R2.1500
    G1 X-13.0000 Y-17.4710
    G03 X-13.0000 y-13.1710 R2.1500
    
    G1 X-14.0000 Y-13.1710
    G03 X-14.0000 Y-17.4710 R2.1500
    G1 X-13.5000 Y-17.4710
    G03 X-13.5000 y-13.1710 R2.1500
    
    G1 X-14.5000 Y-13.1710
    G03 X-14.5000 Y-17.4710 R2.1500
    G1 X-14.0000 Y-17.4710
    G03 X-14.0000 y-13.1710 R2.1500
    
    G1 X-15.0000 Y-13.1710
    G03 X-15.0000 Y-17.4710 R2.1500
    G1 X-14.5000 Y-17.4710
    G03 X-14.5000 y-13.1710 R2.1500
    
    G1 X-15.5000 Y-13.1710
    G03 X-15.5000 Y-17.4710 R2.1500
    G1 X-15.0000 Y-17.4710
    G03 X-15.0000 y-13.1710 R2.1500
    
    G1 X-16.0000 Y-13.1710
    G03 X-16.0000 Y-17.4710 R2.1500
    G1 X-15.5000 Y-17.4710
    G03 X-15.5000 y-13.1710 R2.1500
    
    G1 X-16.5000 Y-13.1710
    G03 X-16.5000 Y-17.4710 R2.1500
    G1 X-16.0000 Y-17.4710
    G03 X-16.0000 y-13.1710 R2.1500
    
    G1 X-17.0000 Y-13.1710
    G03 X-17.0000 Y-17.4710 R2.1500
    G1 X-16.5000 Y-17.4710
    G03 X-16.5000 y-13.1710 R2.1500
    
    G1 X-17.5000 Y-13.1710
    G03 X-17.5000 Y-17.4710 R2.1500
    G1 X-17.0000 Y-17.4710
    G03 X-17.0000 y-13.1710 R2.1500
    
    G1 X-18.0000 Y-13.1710
    G03 X-18.0000 Y-17.4710 R2.1500
    G1 X-17.5000 Y-17.4710
    G03 X-17.5000 y-13.1710 R2.1500
    
    G1 X-18.5000 Y-13.1710
    G03 X-18.5000 Y-17.4710 R2.1500
    G1 X-18.0000 Y-17.4710
    G03 X-18.0000 y-13.1710 R2.1500
    
    G1 X-19.0000 Y-13.1710
    G03 X-19.0000 Y-17.4710 R2.1500
    G1 X-18.5000 Y-17.4710
    G03 X-18.5000 y-13.1710 R2.1500
    
    G1 X-19.5000 Y-13.1710
    G03 X-19.5000 Y-17.4710 R2.1500
    G1 X-19.0000 Y-17.4710
    G03 X-19.0000 y-13.1710 R2.1500
    
    G1 X-20.0000 Y-13.1710
    G03 X-20.0000 Y-17.4710 R2.1500
    G1 X-19.5000 Y-17.4710
    G03 X-19.5000 y-13.1710 R2.1500
    G1 X-20.0000 Y-13.1710
    (---trichoidal linear slot end---)
    
    (---trichoidal linear slot start---)                                                                                                                                                                                                                     
    (---description---)
    (Calculates and prints to a txt file the trichoidal tool path in G code of a straight slot.)                                                                                                         
    (returns last position of cutter and end position of slot)
    (start and end points are located along slot arc center/neutral axis)
    (assumes that cutter is at cutting depth)
    (does NOT return to safe z)
    (---parameters---)                                                                                                          
    (start: X-20.000 Y-15.321)
    (end: X-23.000 Y-15.321)
    (step over: 0.500)
    (width of slot: 5.300)                                                                                            
    (cutter diameter: 1.000)
    (position of cutter: X-20.0000 Y-13.1710)
    (first slot: False)
    (last slot: True)                                                                                                  
    
    G1 X-20.5000 Y-13.1710
    G03 X-20.5000 Y-17.4710 R2.1500
    G1 X-20.0000 Y-17.4710
    G03 X-20.0000 y-13.1710 R2.1500
    
    G1 X-21.0000 Y-13.1710
    G03 X-21.0000 Y-17.4710 R2.1500
    G1 X-20.5000 Y-17.4710
    G03 X-20.5000 y-13.1710 R2.1500
    
    G1 X-21.5000 Y-13.1710
    G03 X-21.5000 Y-17.4710 R2.1500
    G1 X-21.0000 Y-17.4710
    G03 X-21.0000 y-13.1710 R2.1500
    
    G1 X-22.0000 Y-13.1710
    G03 X-22.0000 Y-17.4710 R2.1500
    G1 X-21.5000 Y-17.4710
    G03 X-21.5000 y-13.1710 R2.1500
    
    G1 X-22.5000 Y-13.1710
    G03 X-22.5000 Y-17.4710 R2.1500
    G1 X-22.0000 Y-17.4710
    G03 X-22.0000 y-13.1710 R2.1500
    
    G1 X-23.0000 Y-13.1710
    G03 X-23.0000 Y-17.4710 R2.1500
    G1 X-22.5000 Y-17.4710
    G03 X-22.5000 y-15.3210 R1.0750
    G1 X-23.0000 Y-15.3210
    (---trichoidal linear slot end---)
    
G0 Z6.0000				(Rapid to safe height)
G0 X6.0000 Y-3.3207                 (Rapid to start point)
G0 Z-6.0000				(Rapid to cutting height)
F181.1     (set cutting feed)

    (---toolpath_data_frame start---)
    (---description---)
    (Imports a 2D dataframe from an excel file, calculates the toolpath adjusted for offset and tool diameter and prints to a txt file the single or trichoidal tool path in G code.)
    (returns last position of cutter and end position of arc.)
    (refer to "ALG20220329001 Toolpath Data Frame Algorithm")
    (start and end points are located at slot arc center points.)
    (assumes that cutter is at cutting depth.)
    (does not return to safe z.)
    (does not set cutting feed.)
    (---parameter---)            
    (cutter diameter: 1.000)        
    (offset: 0.100)
    (excel_file: vector-01.xlsx)
    (sheet: Sheet10)
    
    (---trichoidal linear slot start---)                                                                                                                                                                                                                     
    (---description---)
    (Calculates and prints to a txt file the trichoidal tool path in G code of a straight slot.)                                                                                                         
    (returns last position of cutter and end position of slot)
    (start and end points are located along slot arc center/neutral axis)
    (assumes that cutter is at cutting depth)
    (does NOT return to safe z)
    (---parameters---)                                                                                                          
    (start: X6.000 Y-3.321)
    (end: X-1.189 Y-3.321)
    (step over: 0.500)
    (width of slot: 6.000)                                                                                            
    (cutter diameter: 1.000)
    (position of cutter: X6.0000 Y-3.3207)
    (first slot: True)
    (last slot: False)                                                                                                  
    
    G03 X6.0000 Y-0.8207 R1.2500
    
    G1 X5.5000 Y-0.8207
    G03 X5.5000 Y-5.8207 R2.5000
    G1 X6.0000 Y-5.8207
    G03 X6.0000 y-0.8207 R2.5000
    
    G1 X5.0000 Y-0.8207
    G03 X5.0000 Y-5.8207 R2.5000
    G1 X5.5000 Y-5.8207
    G03 X5.5000 y-0.8207 R2.5000
    
    G1 X4.5000 Y-0.8207
    G03 X4.5000 Y-5.8207 R2.5000
    G1 X5.0000 Y-5.8207
    G03 X5.0000 y-0.8207 R2.5000
    
    G1 X4.0000 Y-0.8207
    G03 X4.0000 Y-5.8207 R2.5000
    G1 X4.5000 Y-5.8207
    G03 X4.5000 y-0.8207 R2.5000
    
    G1 X3.5000 Y-0.8207
    G03 X3.5000 Y-5.8207 R2.5000
    G1 X4.0000 Y-5.8207
    G03 X4.0000 y-0.8207 R2.5000
    
    G1 X3.0000 Y-0.8207
    G03 X3.0000 Y-5.8207 R2.5000
    G1 X3.5000 Y-5.8207
    G03 X3.5000 y-0.8207 R2.5000
    
    G1 X2.5000 Y-0.8207
    G03 X2.5000 Y-5.8207 R2.5000
    G1 X3.0000 Y-5.8207
    G03 X3.0000 y-0.8207 R2.5000
    
    G1 X2.0000 Y-0.8207
    G03 X2.0000 Y-5.8207 R2.5000
    G1 X2.5000 Y-5.8207
    G03 X2.5000 y-0.8207 R2.5000
    
    G1 X1.5000 Y-0.8207
    G03 X1.5000 Y-5.8207 R2.5000
    G1 X2.0000 Y-5.8207
    G03 X2.0000 y-0.8207 R2.5000
    
    G1 X1.0000 Y-0.8207
    G03 X1.0000 Y-5.8207 R2.5000
    G1 X1.5000 Y-5.8207
    G03 X1.5000 y-0.8207 R2.5000
    
    G1 X0.5000 Y-0.8207
    G03 X0.5000 Y-5.8207 R2.5000
    G1 X1.0000 Y-5.8207
    G03 X1.0000 y-0.8207 R2.5000
    
    G1 X0.0000 Y-0.8207
    G03 X-0.0000 Y-5.8207 R2.5000
    G1 X0.5000 Y-5.8207
    G03 X0.5000 y-0.8207 R2.5000
    
    G1 X-0.5000 Y-0.8207
    G03 X-0.5000 Y-5.8207 R2.5000
    G1 X-0.0000 Y-5.8207
    G03 X0.0000 y-0.8207 R2.5000
    
    G1 X-1.0000 Y-0.8207
    G03 X-1.0000 Y-5.8207 R2.5000
    G1 X-0.5000 Y-5.8207
    G03 X-0.5000 y-0.8207 R2.5000
    
    G1 X-1.1894 Y-0.8207
    G03 X-1.1894 Y-5.8207 R2.5000
    G1 X-1.0000 Y-5.8207
    G03 X-1.0000 y-0.8207 R2.5000
    G1 X-1.1894 Y-0.8207
    (---trichoidal linear slot end---)
    (---trichoidal arc slot start---)
    (---description---)
    (Calculates and prints to a txt file the trichoidal tool path in G code of a counter clockwise arc.)
    (returns last position of cutter and end position of arc.)
    (refer to "PRT20210421001 Trichoidal Arc Calculator", "MEM20210522001 Trichoidal Arc", "MEM20210429002 Trichoidal Notes")
    (start and end points are located at slot arc center points.)
    (assumes that cutter is at cutting depth.)
    (does not return to safe z.)
    (does not set cutting feed.)
    (---parameter---)
    (start: X-1.189 Y-3.321)
    (end: X-4.086 Y-1.102)
    (step over: 0.500)                     
    (width of slot: 6.000) 
    (slot radius : 3.000)                  
    (cutter diameter: 1.000)        
    (position of cutter: X-1.1894 Y-0.8207) 
    (first slot: False)              
    (last slot: False)                
    (clockwise : True)
    (acute angle: True)
    
            G02 X-1.2723 Y-0.8138 R0.5000
            G03 X-2.1018 Y-5.7445 R2.5000
            G03 X-1.1894 Y-5.8207 R5.5000
            G03 X-1.1894 Y-0.8207 R2.5000
            
            G02 X-1.2723 Y-0.8138 R0.5000
            
            G02 X-1.3530 Y-0.7932 R0.5000
            G03 X-2.9890 Y-5.5180 R2.5000
            G03 X-2.1018 Y-5.7445 R5.5000
            G03 X-1.2723 Y-0.8138 R2.5000
            
            G02 X-1.3530 Y-0.7932 R0.5000
            
            G02 X-1.4291 Y-0.7595 R0.5000
            G03 X-3.8262 Y-5.1474 R2.5000
            G03 X-2.9890 Y-5.5180 R5.5000
            G03 X-1.3530 Y-0.7932 R2.5000
            
            G02 X-1.4291 Y-0.7595 R0.5000
            
            G02 X-1.4986 Y-0.7136 R0.5000
            G03 X-4.5904 Y-4.6431 R2.5000
            G03 X-3.8262 Y-5.1474 R5.5000
            G03 X-1.4291 Y-0.7595 R2.5000
            
            G02 X-1.4986 Y-0.7136 R0.5000
            
            G02 X-1.5595 Y-0.6569 R0.5000
            G03 X-5.2604 Y-4.0190 R2.5000
            G03 X-4.5904 Y-4.6431 R5.5000
            G03 X-1.4986 Y-0.7136 R2.5000
            
            G02 X-1.5595 Y-0.6569 R0.5000
            
            G02 X-1.6101 Y-0.5909 R0.5000
            G03 X-5.8175 Y-3.2924 R2.5000
            G03 X-5.2604 Y-4.0190 R5.5000
            G03 X-1.5595 Y-0.6569 R2.5000
            
            G02 X-1.6101 Y-0.5909 R0.5000
            
            G02 X-1.6491 Y-0.5173 R0.5000
            G03 X-6.2463 Y-2.4834 R2.5000
            G03 X-5.8175 Y-3.2924 R5.5000
            G03 X-1.6101 Y-0.5909 R2.5000
            
            G02 X-1.6491 Y-0.5173 R0.5000
            
            G02 X-1.6721 Y-0.4509 R0.5000
            G03 X-6.4997 Y-1.7529 R2.5000
            G03 X-6.2463 Y-2.4834 R5.5000
            G03 X-1.6491 Y-0.5173 R2.5000
            G02 X-1.6721 Y-0.4509 R0.5000
    (---trichoidal arc slot end---)
    (---trichoidal arc slot start---)
    (---description---)
    (Calculates and prints to a txt file the trichoidal tool path in G code of a counter clockwise arc.)
    (returns last position of cutter and end position of arc.)
    (refer to "PRT20210421001 Trichoidal Arc Calculator", "MEM20210522001 Trichoidal Arc", "MEM20210429002 Trichoidal Notes")
    (start and end points are located at slot arc center points.)
    (assumes that cutter is at cutting depth.)
    (does not return to safe z.)
    (does not set cutting feed.)
    (---parameter---)
    (start: X-4.086 Y-1.102)
    (end: X4.086 Y-1.102)
    (step over: 0.500)                     
    (width of slot: 6.000) 
    (slot radius : 4.232)                  
    (cutter diameter: 1.000)        
    (position of cutter: X-1.6721 Y-0.4509) 
    (first slot: False)              
    (last slot: False)                
    (clockwise : True)
    (acute angle: False)
    
            G02 X-1.7137 Y-0.2506 R1.7319
            G03 X-6.6610 Y-0.9745 R2.5000
            G03 X-6.4997 Y-1.7529 R6.7319
            G03 X-1.6721 Y-0.4509 R2.5000
            
            G02 X-1.7137 Y-0.2506 R1.7319
            
            G02 X-1.7313 Y-0.0469 R1.7319
            G03 X-6.7294 Y-0.1826 R2.5000
            G03 X-6.6610 Y-0.9745 R6.7319
            G03 X-1.7137 Y-0.2506 R2.5000
            
            G02 X-1.7313 Y-0.0469 R1.7319
            
            G02 X-1.7247 Y0.1575 R1.7319
            G03 X-6.7040 Y0.6119 R2.5000
            G03 X-6.7294 Y-0.1826 R6.7319
            G03 X-1.7313 Y-0.0469 R2.5000
            
            G02 X-1.7247 Y0.1575 R1.7319
            
            G02 X-1.6942 Y0.3597 R1.7319
            G03 X-6.5852 Y1.3979 R2.5000
            G03 X-6.7040 Y0.6119 R6.7319
            G03 X-1.7247 Y0.1575 R2.5000
            
            G02 X-1.6942 Y0.3597 R1.7319
            
            G02 X-1.6400 Y0.5569 R1.7319
            G03 X-6.3745 Y2.1644 R2.5000
            G03 X-6.5852 Y1.3979 R6.7319
            G03 X-1.6942 Y0.3597 R2.5000
            
            G02 X-1.6400 Y0.5569 R1.7319
            
            G02 X-1.5629 Y0.7463 R1.7319
            G03 X-6.0749 Y2.9007 R2.5000
            G03 X-6.3745 Y2.1644 R6.7319
            G03 X-1.6400 Y0.5569 R2.5000
            
            G02 X-1.5629 Y0.7463 R1.7319
            
            G02 X-1.4640 Y0.9254 R1.7319
            G03 X-5.6907 Y3.5966 R2.5000
            G03 X-6.0749 Y2.9007 R6.7319
            G03 X-1.5629 Y0.7463 R2.5000
            
            G02 X-1.4640 Y0.9254 R1.7319
            
            G02 X-1.3448 Y1.0915 R1.7319
            G03 X-5.2271 Y4.2423 R2.5000
            G03 X-5.6907 Y3.5966 R6.7319
            G03 X-1.4640 Y0.9254 R2.5000
            
            G02 X-1.3448 Y1.0915 R1.7319
            
            G02 X-1.2067 Y1.2424 R1.7319
            G03 X-4.6906 Y4.8289 R2.5000
            G03 X-5.2271 Y4.2423 R6.7319
            G03 X-1.3448 Y1.0915 R2.5000
            
            G02 X-1.2067 Y1.2424 R1.7319
            
            G02 X-1.0519 Y1.3760 R1.7319
            G03 X-4.0887 Y5.3481 R2.5000
            G03 X-4.6906 Y4.8289 R6.7319
            G03 X-1.2067 Y1.2424 R2.5000
            
            G02 X-1.0519 Y1.3760 R1.7319
            
            G02 X-0.8824 Y1.4904 R1.7319
            G03 X-3.4298 Y5.7928 R2.5000
            G03 X-4.0887 Y5.3481 R6.7319
            G03 X-1.0519 Y1.3760 R2.5000
            
            G02 X-0.8824 Y1.4904 R1.7319
            
            G02 X-0.7006 Y1.5840 R1.7319
            G03 X-2.7231 Y6.1567 R2.5000
            G03 X-3.4298 Y5.7928 R6.7319
            G03 X-0.8824 Y1.4904 R2.5000
            
            G02 X-0.7006 Y1.5840 R1.7319
            
            G02 X-0.5090 Y1.6555 R1.7319
            G03 X-1.9784 Y6.4347 R2.5000
            G03 X-2.7231 Y6.1567 R6.7319
            G03 X-0.7006 Y1.5840 R2.5000
            
            G02 X-0.5090 Y1.6555 R1.7319
            
            G02 X-0.3103 Y1.7040 R1.7319
            G03 X-1.2061 Y6.6231 R2.5000
            G03 X-1.9784 Y6.4347 R6.7319
            G03 X-0.5090 Y1.6555 R2.5000
            
            G02 X-0.3103 Y1.7040 R1.7319
            
            G02 X-0.1073 Y1.7287 R1.7319
            G03 X-0.4170 Y6.7191 R2.5000
            G03 X-1.2061 Y6.6231 R6.7319
            G03 X-0.3103 Y1.7040 R2.5000
            
            G02 X-0.1073 Y1.7287 R1.7319
            
            G02 X0.0972 Y1.7293 R1.7319
            G03 X0.3779 Y6.7214 R2.5000
            G03 X-0.4170 Y6.7191 R6.7319
            G03 X-0.1073 Y1.7287 R2.5000
            
            G02 X0.0972 Y1.7293 R1.7319
            
            G02 X0.3004 Y1.7058 R1.7319
            G03 X1.1676 Y6.6300 R2.5000
            G03 X0.3779 Y6.7214 R6.7319
            G03 X0.0972 Y1.7293 R2.5000
            
            G02 X0.3004 Y1.7058 R1.7319
            
            G02 X0.4993 Y1.6585 R1.7319
            G03 X1.9409 Y6.4461 R2.5000
            G03 X1.1676 Y6.6300 R6.7319
            G03 X0.3004 Y1.7058 R2.5000
            
            G02 X0.4993 Y1.6585 R1.7319
            
            G02 X0.6913 Y1.5880 R1.7319
            G03 X2.6872 Y6.1724 R2.5000
            G03 X1.9409 Y6.4461 R6.7319
            G03 X0.4993 Y1.6585 R2.5000
            
            G02 X0.6913 Y1.5880 R1.7319
            
            G02 X0.8737 Y1.4955 R1.7319
            G03 X3.3960 Y5.8126 R2.5000
            G03 X2.6872 Y6.1724 R6.7319
            G03 X0.6913 Y1.5880 R2.5000
            
            G02 X0.8737 Y1.4955 R1.7319
            
            G02 X1.0439 Y1.3821 R1.7319
            G03 X4.0575 Y5.3718 R2.5000
            G03 X3.3960 Y5.8126 R6.7319
            G03 X0.8737 Y1.4955 R2.5000
            
            G02 X1.0439 Y1.3821 R1.7319
            
            G02 X1.1995 Y1.2494 R1.7319
            G03 X4.6624 Y4.8560 R2.5000
            G03 X4.0575 Y5.3718 R6.7319
            G03 X1.0439 Y1.3821 R2.5000
            
            G02 X1.1995 Y1.2494 R1.7319
            
            G02 X1.3384 Y1.0993 R1.7319
            G03 X5.2023 Y4.2726 R2.5000
            G03 X4.6624 Y4.8560 R6.7319
            G03 X1.1995 Y1.2494 R2.5000
            
            G02 X1.3384 Y1.0993 R1.7319
            
            G02 X1.4586 Y0.9338 R1.7319
            G03 X5.6697 Y3.6296 R2.5000
            G03 X5.2023 Y4.2726 R6.7319
            G03 X1.3384 Y1.0993 R2.5000
            
            G02 X1.4586 Y0.9338 R1.7319
            
            G02 X1.5585 Y0.7554 R1.7319
            G03 X6.0580 Y2.9360 R2.5000
            G03 X5.6697 Y3.6296 R6.7319
            G03 X1.4586 Y0.9338 R2.5000
            
            G02 X1.5585 Y0.7554 R1.7319
            
            G02 X1.6367 Y0.5664 R1.7319
            G03 X6.3618 Y2.2014 R2.5000
            G03 X6.0580 Y2.9360 R6.7319
            G03 X1.5585 Y0.7554 R2.5000
            
            G02 X1.6367 Y0.5664 R1.7319
            
            G02 X1.6920 Y0.3696 R1.7319
            G03 X6.5769 Y1.4362 R2.5000
            G03 X6.3618 Y2.2014 R6.7319
            G03 X1.6367 Y0.5664 R2.5000
            
            G02 X1.6920 Y0.3696 R1.7319
            
            G02 X1.7238 Y0.1675 R1.7319
            G03 X6.7004 Y0.6509 R2.5000
            G03 X6.5769 Y1.4362 R6.7319
            G03 X1.6920 Y0.3696 R2.5000
            
            G02 X1.7238 Y0.1675 R1.7319
            
            G02 X1.7315 Y-0.0368 R1.7319
            G03 X6.7304 Y-0.1435 R2.5000
            G03 X6.7004 Y0.6509 R6.7319
            G03 X1.7238 Y0.1675 R2.5000
            
            G02 X1.7315 Y-0.0368 R1.7319
            
            G02 X1.7151 Y-0.2407 R1.7319
            G03 X6.6665 Y-0.9358 R2.5000
            G03 X6.7304 Y-0.1435 R6.7319
            G03 X1.7315 Y-0.0368 R2.5000
            
            G02 X1.7151 Y-0.2407 R1.7319
            
            G02 X1.6747 Y-0.4412 R1.7319
            G03 X6.5097 Y-1.7151 R2.5000
            G03 X6.6665 Y-0.9358 R6.7319
            G03 X1.7151 Y-0.2407 R2.5000
            
            G02 X1.6747 Y-0.4412 R1.7319
            
            G02 X1.6721 Y-0.4509 R1.7319
            G03 X6.4997 Y-1.7529 R2.5000
            G03 X6.5097 Y-1.7151 R6.7319
            G03 X1.6747 Y-0.4412 R2.5000
            G02 X1.6721 Y-0.4509 R1.7319
    (---trichoidal arc slot end---)
    (---trichoidal arc slot start---)
    (---description---)
    (Calculates and prints to a txt file the trichoidal tool path in G code of a counter clockwise arc.)
    (returns last position of cutter and end position of arc.)
    (refer to "PRT20210421001 Trichoidal Arc Calculator", "MEM20210522001 Trichoidal Arc", "MEM20210429002 Trichoidal Notes")
    (start and end points are located at slot arc center points.)
    (assumes that cutter is at cutting depth.)
    (does not return to safe z.)
    (does not set cutting feed.)
    (---parameter---)
    (start: X4.086 Y-1.102)
    (end: X1.189 Y-3.321)
    (step over: 0.500)                     
    (width of slot: 6.000) 
    (slot radius : 3.000)                  
    (cutter diameter: 1.000)        
    (position of cutter: X1.6721 Y-0.4509) 
    (first slot: False)              
    (last slot: False)                
    (clockwise : True)
    (acute angle: True)
    
            G02 X1.6439 Y-0.5292 R0.5000
            G03 X6.1885 Y-2.6140 R2.5000
            G03 X6.4997 Y-1.7529 R5.5000
            G03 X1.6721 Y-0.4509 R2.5000
            
            G02 X1.6439 Y-0.5292 R0.5000
            
            G02 X1.6030 Y-0.6017 R0.5000
            G03 X5.7388 Y-3.4116 R2.5000
            G03 X6.1885 Y-2.6140 R5.5000
            G03 X1.6439 Y-0.5292 R2.5000
            
            G02 X1.6030 Y-0.6017 R0.5000
            
            G02 X1.5506 Y-0.6664 R0.5000
            G03 X5.1630 Y-4.1234 R2.5000
            G03 X5.7388 Y-3.4116 R5.5000
            G03 X1.6030 Y-0.6017 R2.5000
            
            G02 X1.5506 Y-0.6664 R0.5000
            
            G02 X1.4883 Y-0.7215 R0.5000
            G03 X4.4770 Y-4.7299 R2.5000
            G03 X5.1630 Y-4.1234 R5.5000
            G03 X1.5506 Y-0.6664 R2.5000
            
            G02 X1.4883 Y-0.7215 R0.5000
            
            G02 X1.4176 Y-0.7656 R0.5000
            G03 X3.7000 Y-5.2143 R2.5000
            G03 X4.4770 Y-4.7299 R5.5000
            G03 X1.4883 Y-0.7215 R2.5000
            
            G02 X1.4176 Y-0.7656 R0.5000
            
            G02 X1.3407 Y-0.7973 R0.5000
            G03 X2.8534 Y-5.5629 R2.5000
            G03 X3.7000 Y-5.2143 R5.5000
            G03 X1.4176 Y-0.7656 R2.5000
            
            G02 X1.3407 Y-0.7973 R0.5000
            
            G02 X1.2595 Y-0.8158 R0.5000
            G03 X1.9607 Y-5.7664 R2.5000
            G03 X2.8534 Y-5.5629 R5.5000
            G03 X1.3407 Y-0.7973 R2.5000
            
            G02 X1.2595 Y-0.8158 R0.5000
            
            G02 X1.1894 Y-0.8207 R0.5000
            G03 X1.1894 Y-5.8207 R2.5000
            G03 X1.9607 Y-5.7664 R5.5000
            G03 X1.2595 Y-0.8158 R2.5000
            G02 X1.1894 Y-0.8207 R0.5000
    (---trichoidal arc slot end---)
    
    (---trichoidal linear slot start---)                                                                                                                                                                                                                     
    (---description---)
    (Calculates and prints to a txt file the trichoidal tool path in G code of a straight slot.)                                                                                                         
    (returns last position of cutter and end position of slot)
    (start and end points are located along slot arc center/neutral axis)
    (assumes that cutter is at cutting depth)
    (does NOT return to safe z)
    (---parameters---)                                                                                                          
    (start: X1.189 Y-3.321)
    (end: X0.100 Y-3.321)
    (step over: 0.500)
    (width of slot: 6.000)                                                                                            
    (cutter diameter: 1.000)
    (position of cutter: X1.1894 Y-0.8207)
    (first slot: False)
    (last slot: True)                                                                                                  
    
    G1 X0.6894 Y-0.8207
    G03 X0.6894 Y-5.8207 R2.5000
    G1 X1.1894 Y-5.8207
    G03 X1.1894 y-0.8207 R2.5000
    
    G1 X0.1894 Y-0.8207
    G03 X0.1894 Y-5.8207 R2.5000
    G1 X0.6894 Y-5.8207
    G03 X0.6894 y-0.8207 R2.5000
    
    G1 X0.1000 Y-0.8207
    G03 X0.1000 Y-5.8207 R2.5000
    G1 X0.1894 Y-5.8207
    G03 X0.1894 y-3.3207 R1.2500
    G1 X0.1000 Y-3.3207
    (---trichoidal linear slot end---)
    
G0 Z6.0000				(Rapid to safe height)
G0 X6.0000 Y-0.8207                 (Rapid to start point)
G0 Z-6.0000				(Rapid to cutting height)
F181.1     (set cutting feed)

    (---toolpath_data_frame start---)
    (---description---)
    (Imports a 2D dataframe from an excel file, calculates the toolpath adjusted for offset and tool diameter and prints to a txt file the single or trichoidal tool path in G code.)
    (returns last position of cutter and end position of arc.)
    (refer to "ALG20220329001 Toolpath Data Frame Algorithm")
    (start and end points are located at slot arc center points.)
    (assumes that cutter is at cutting depth.)
    (does not return to safe z.)
    (does not set cutting feed.)
    (---parameter---)            
    (cutter diameter: 1.000)        
    (offset: 0.100)
    (excel_file: vector-01.xlsx)
    (sheet: Sheet12)
    G1 X-1.1894 Y-0.8207 F109
G02 X-1.6722 Y-0.4509 R0.5000 F109
G02 X1.6722 Y-0.4509 R-1.7319 F109
G02 X1.1894 Y-0.8207 R0.5000 F109
G1 X-1.1894 Y-0.8207 F109
G02 X-1.6722 Y-0.4509 R0.5000 F109
G02 X1.6722 Y-0.4509 R-1.7319 F109
G02 X1.1894 Y-0.8207 R0.5000 F109
G1 X-1.1894 Y-0.8207 F109
G02 X-1.6722 Y-0.4509 R0.5000 F109
G02 X1.6722 Y-0.4509 R-1.7319 F109
G02 X1.1894 Y-0.8207 R0.5000 F109
G1 X0.1000 Y-0.8207 F109

    G0 Z6.0000				(Rapid to safe height)
    G0 X0 Y0                 (Rapid to zero point)
    G92 X7.9638 Y0       (Offset datum)
    G0 X6.0000 Y-3.3207                 (Rapid to start point)
    G0 Z-6.0000				(Rapid to cutting height)
    F181.1     (set cutting feed)
    
    (---toolpath_data_frame start---)
    (---description---)
    (Imports a 2D dataframe from an excel file, calculates the toolpath adjusted for offset and tool diameter and prints to a txt file the single or trichoidal tool path in G code.)
    (returns last position of cutter and end position of arc.)
    (refer to "ALG20220329001 Toolpath Data Frame Algorithm")
    (start and end points are located at slot arc center points.)
    (assumes that cutter is at cutting depth.)
    (does not return to safe z.)
    (does not set cutting feed.)
    (---parameter---)            
    (cutter diameter: 1.000)        
    (offset: 0.100)
    (excel_file: vector-01.xlsx)
    (sheet: Sheet10)
    
    (---trichoidal linear slot start---)                                                                                                                                                                                                                     
    (---description---)
    (Calculates and prints to a txt file the trichoidal tool path in G code of a straight slot.)                                                                                                         
    (returns last position of cutter and end position of slot)
    (start and end points are located along slot arc center/neutral axis)
    (assumes that cutter is at cutting depth)
    (does NOT return to safe z)
    (---parameters---)                                                                                                          
    (start: X6.000 Y-3.321)
    (end: X-1.189 Y-3.321)
    (step over: 0.500)
    (width of slot: 6.000)                                                                                            
    (cutter diameter: 1.000)
    (position of cutter: X6.0000 Y-3.3207)
    (first slot: True)
    (last slot: False)                                                                                                  
    
    G03 X6.0000 Y-0.8207 R1.2500
    
    G1 X5.5000 Y-0.8207
    G03 X5.5000 Y-5.8207 R2.5000
    G1 X6.0000 Y-5.8207
    G03 X6.0000 y-0.8207 R2.5000
    
    G1 X5.0000 Y-0.8207
    G03 X5.0000 Y-5.8207 R2.5000
    G1 X5.5000 Y-5.8207
    G03 X5.5000 y-0.8207 R2.5000
    
    G1 X4.5000 Y-0.8207
    G03 X4.5000 Y-5.8207 R2.5000
    G1 X5.0000 Y-5.8207
    G03 X5.0000 y-0.8207 R2.5000
    
    G1 X4.0000 Y-0.8207
    G03 X4.0000 Y-5.8207 R2.5000
    G1 X4.5000 Y-5.8207
    G03 X4.5000 y-0.8207 R2.5000
    
    G1 X3.5000 Y-0.8207
    G03 X3.5000 Y-5.8207 R2.5000
    G1 X4.0000 Y-5.8207
    G03 X4.0000 y-0.8207 R2.5000
    
    G1 X3.0000 Y-0.8207
    G03 X3.0000 Y-5.8207 R2.5000
    G1 X3.5000 Y-5.8207
    G03 X3.5000 y-0.8207 R2.5000
    
    G1 X2.5000 Y-0.8207
    G03 X2.5000 Y-5.8207 R2.5000
    G1 X3.0000 Y-5.8207
    G03 X3.0000 y-0.8207 R2.5000
    
    G1 X2.0000 Y-0.8207
    G03 X2.0000 Y-5.8207 R2.5000
    G1 X2.5000 Y-5.8207
    G03 X2.5000 y-0.8207 R2.5000
    
    G1 X1.5000 Y-0.8207
    G03 X1.5000 Y-5.8207 R2.5000
    G1 X2.0000 Y-5.8207
    G03 X2.0000 y-0.8207 R2.5000
    
    G1 X1.0000 Y-0.8207
    G03 X1.0000 Y-5.8207 R2.5000
    G1 X1.5000 Y-5.8207
    G03 X1.5000 y-0.8207 R2.5000
    
    G1 X0.5000 Y-0.8207
    G03 X0.5000 Y-5.8207 R2.5000
    G1 X1.0000 Y-5.8207
    G03 X1.0000 y-0.8207 R2.5000
    
    G1 X0.0000 Y-0.8207
    G03 X-0.0000 Y-5.8207 R2.5000
    G1 X0.5000 Y-5.8207
    G03 X0.5000 y-0.8207 R2.5000
    
    G1 X-0.5000 Y-0.8207
    G03 X-0.5000 Y-5.8207 R2.5000
    G1 X-0.0000 Y-5.8207
    G03 X0.0000 y-0.8207 R2.5000
    
    G1 X-1.0000 Y-0.8207
    G03 X-1.0000 Y-5.8207 R2.5000
    G1 X-0.5000 Y-5.8207
    G03 X-0.5000 y-0.8207 R2.5000
    
    G1 X-1.1894 Y-0.8207
    G03 X-1.1894 Y-5.8207 R2.5000
    G1 X-1.0000 Y-5.8207
    G03 X-1.0000 y-0.8207 R2.5000
    G1 X-1.1894 Y-0.8207
    (---trichoidal linear slot end---)
    (---trichoidal arc slot start---)
    (---description---)
    (Calculates and prints to a txt file the trichoidal tool path in G code of a counter clockwise arc.)
    (returns last position of cutter and end position of arc.)
    (refer to "PRT20210421001 Trichoidal Arc Calculator", "MEM20210522001 Trichoidal Arc", "MEM20210429002 Trichoidal Notes")
    (start and end points are located at slot arc center points.)
    (assumes that cutter is at cutting depth.)
    (does not return to safe z.)
    (does not set cutting feed.)
    (---parameter---)
    (start: X-1.189 Y-3.321)
    (end: X-4.086 Y-1.102)
    (step over: 0.500)                     
    (width of slot: 6.000) 
    (slot radius : 3.000)                  
    (cutter diameter: 1.000)        
    (position of cutter: X-1.1894 Y-0.8207) 
    (first slot: False)              
    (last slot: False)                
    (clockwise : True)
    (acute angle: True)
    
            G02 X-1.2723 Y-0.8138 R0.5000
            G03 X-2.1018 Y-5.7445 R2.5000
            G03 X-1.1894 Y-5.8207 R5.5000
            G03 X-1.1894 Y-0.8207 R2.5000
            
            G02 X-1.2723 Y-0.8138 R0.5000
            
            G02 X-1.3530 Y-0.7932 R0.5000
            G03 X-2.9890 Y-5.5180 R2.5000
            G03 X-2.1018 Y-5.7445 R5.5000
            G03 X-1.2723 Y-0.8138 R2.5000
            
            G02 X-1.3530 Y-0.7932 R0.5000
            
            G02 X-1.4291 Y-0.7595 R0.5000
            G03 X-3.8262 Y-5.1474 R2.5000
            G03 X-2.9890 Y-5.5180 R5.5000
            G03 X-1.3530 Y-0.7932 R2.5000
            
            G02 X-1.4291 Y-0.7595 R0.5000
            
            G02 X-1.4986 Y-0.7136 R0.5000
            G03 X-4.5904 Y-4.6431 R2.5000
            G03 X-3.8262 Y-5.1474 R5.5000
            G03 X-1.4291 Y-0.7595 R2.5000
            
            G02 X-1.4986 Y-0.7136 R0.5000
            
            G02 X-1.5595 Y-0.6569 R0.5000
            G03 X-5.2604 Y-4.0190 R2.5000
            G03 X-4.5904 Y-4.6431 R5.5000
            G03 X-1.4986 Y-0.7136 R2.5000
            
            G02 X-1.5595 Y-0.6569 R0.5000
            
            G02 X-1.6101 Y-0.5909 R0.5000
            G03 X-5.8175 Y-3.2924 R2.5000
            G03 X-5.2604 Y-4.0190 R5.5000
            G03 X-1.5595 Y-0.6569 R2.5000
            
            G02 X-1.6101 Y-0.5909 R0.5000
            
            G02 X-1.6491 Y-0.5173 R0.5000
            G03 X-6.2463 Y-2.4834 R2.5000
            G03 X-5.8175 Y-3.2924 R5.5000
            G03 X-1.6101 Y-0.5909 R2.5000
            
            G02 X-1.6491 Y-0.5173 R0.5000
            
            G02 X-1.6721 Y-0.4509 R0.5000
            G03 X-6.4997 Y-1.7529 R2.5000
            G03 X-6.2463 Y-2.4834 R5.5000
            G03 X-1.6491 Y-0.5173 R2.5000
            G02 X-1.6721 Y-0.4509 R0.5000
    (---trichoidal arc slot end---)
    (---trichoidal arc slot start---)
    (---description---)
    (Calculates and prints to a txt file the trichoidal tool path in G code of a counter clockwise arc.)
    (returns last position of cutter and end position of arc.)
    (refer to "PRT20210421001 Trichoidal Arc Calculator", "MEM20210522001 Trichoidal Arc", "MEM20210429002 Trichoidal Notes")
    (start and end points are located at slot arc center points.)
    (assumes that cutter is at cutting depth.)
    (does not return to safe z.)
    (does not set cutting feed.)
    (---parameter---)
    (start: X-4.086 Y-1.102)
    (end: X4.086 Y-1.102)
    (step over: 0.500)                     
    (width of slot: 6.000) 
    (slot radius : 4.232)                  
    (cutter diameter: 1.000)        
    (position of cutter: X-1.6721 Y-0.4509) 
    (first slot: False)              
    (last slot: False)                
    (clockwise : True)
    (acute angle: False)
    
            G02 X-1.7137 Y-0.2506 R1.7319
            G03 X-6.6610 Y-0.9745 R2.5000
            G03 X-6.4997 Y-1.7529 R6.7319
            G03 X-1.6721 Y-0.4509 R2.5000
            
            G02 X-1.7137 Y-0.2506 R1.7319
            
            G02 X-1.7313 Y-0.0469 R1.7319
            G03 X-6.7294 Y-0.1826 R2.5000
            G03 X-6.6610 Y-0.9745 R6.7319
            G03 X-1.7137 Y-0.2506 R2.5000
            
            G02 X-1.7313 Y-0.0469 R1.7319
            
            G02 X-1.7247 Y0.1575 R1.7319
            G03 X-6.7040 Y0.6119 R2.5000
            G03 X-6.7294 Y-0.1826 R6.7319
            G03 X-1.7313 Y-0.0469 R2.5000
            
            G02 X-1.7247 Y0.1575 R1.7319
            
            G02 X-1.6942 Y0.3597 R1.7319
            G03 X-6.5852 Y1.3979 R2.5000
            G03 X-6.7040 Y0.6119 R6.7319
            G03 X-1.7247 Y0.1575 R2.5000
            
            G02 X-1.6942 Y0.3597 R1.7319
            
            G02 X-1.6400 Y0.5569 R1.7319
            G03 X-6.3745 Y2.1644 R2.5000
            G03 X-6.5852 Y1.3979 R6.7319
            G03 X-1.6942 Y0.3597 R2.5000
            
            G02 X-1.6400 Y0.5569 R1.7319
            
            G02 X-1.5629 Y0.7463 R1.7319
            G03 X-6.0749 Y2.9007 R2.5000
            G03 X-6.3745 Y2.1644 R6.7319
            G03 X-1.6400 Y0.5569 R2.5000
            
            G02 X-1.5629 Y0.7463 R1.7319
            
            G02 X-1.4640 Y0.9254 R1.7319
            G03 X-5.6907 Y3.5966 R2.5000
            G03 X-6.0749 Y2.9007 R6.7319
            G03 X-1.5629 Y0.7463 R2.5000
            
            G02 X-1.4640 Y0.9254 R1.7319
            
            G02 X-1.3448 Y1.0915 R1.7319
            G03 X-5.2271 Y4.2423 R2.5000
            G03 X-5.6907 Y3.5966 R6.7319
            G03 X-1.4640 Y0.9254 R2.5000
            
            G02 X-1.3448 Y1.0915 R1.7319
            
            G02 X-1.2067 Y1.2424 R1.7319
            G03 X-4.6906 Y4.8289 R2.5000
            G03 X-5.2271 Y4.2423 R6.7319
            G03 X-1.3448 Y1.0915 R2.5000
            
            G02 X-1.2067 Y1.2424 R1.7319
            
            G02 X-1.0519 Y1.3760 R1.7319
            G03 X-4.0887 Y5.3481 R2.5000
            G03 X-4.6906 Y4.8289 R6.7319
            G03 X-1.2067 Y1.2424 R2.5000
            
            G02 X-1.0519 Y1.3760 R1.7319
            
            G02 X-0.8824 Y1.4904 R1.7319
            G03 X-3.4298 Y5.7928 R2.5000
            G03 X-4.0887 Y5.3481 R6.7319
            G03 X-1.0519 Y1.3760 R2.5000
            
            G02 X-0.8824 Y1.4904 R1.7319
            
            G02 X-0.7006 Y1.5840 R1.7319
            G03 X-2.7231 Y6.1567 R2.5000
            G03 X-3.4298 Y5.7928 R6.7319
            G03 X-0.8824 Y1.4904 R2.5000
            
            G02 X-0.7006 Y1.5840 R1.7319
            
            G02 X-0.5090 Y1.6555 R1.7319
            G03 X-1.9784 Y6.4347 R2.5000
            G03 X-2.7231 Y6.1567 R6.7319
            G03 X-0.7006 Y1.5840 R2.5000
            
            G02 X-0.5090 Y1.6555 R1.7319
            
            G02 X-0.3103 Y1.7040 R1.7319
            G03 X-1.2061 Y6.6231 R2.5000
            G03 X-1.9784 Y6.4347 R6.7319
            G03 X-0.5090 Y1.6555 R2.5000
            
            G02 X-0.3103 Y1.7040 R1.7319
            
            G02 X-0.1073 Y1.7287 R1.7319
            G03 X-0.4170 Y6.7191 R2.5000
            G03 X-1.2061 Y6.6231 R6.7319
            G03 X-0.3103 Y1.7040 R2.5000
            
            G02 X-0.1073 Y1.7287 R1.7319
            
            G02 X0.0972 Y1.7293 R1.7319
            G03 X0.3779 Y6.7214 R2.5000
            G03 X-0.4170 Y6.7191 R6.7319
            G03 X-0.1073 Y1.7287 R2.5000
            
            G02 X0.0972 Y1.7293 R1.7319
            
            G02 X0.3004 Y1.7058 R1.7319
            G03 X1.1676 Y6.6300 R2.5000
            G03 X0.3779 Y6.7214 R6.7319
            G03 X0.0972 Y1.7293 R2.5000
            
            G02 X0.3004 Y1.7058 R1.7319
            
            G02 X0.4993 Y1.6585 R1.7319
            G03 X1.9409 Y6.4461 R2.5000
            G03 X1.1676 Y6.6300 R6.7319
            G03 X0.3004 Y1.7058 R2.5000
            
            G02 X0.4993 Y1.6585 R1.7319
            
            G02 X0.6913 Y1.5880 R1.7319
            G03 X2.6872 Y6.1724 R2.5000
            G03 X1.9409 Y6.4461 R6.7319
            G03 X0.4993 Y1.6585 R2.5000
            
            G02 X0.6913 Y1.5880 R1.7319
            
            G02 X0.8737 Y1.4955 R1.7319
            G03 X3.3960 Y5.8126 R2.5000
            G03 X2.6872 Y6.1724 R6.7319
            G03 X0.6913 Y1.5880 R2.5000
            
            G02 X0.8737 Y1.4955 R1.7319
            
            G02 X1.0439 Y1.3821 R1.7319
            G03 X4.0575 Y5.3718 R2.5000
            G03 X3.3960 Y5.8126 R6.7319
            G03 X0.8737 Y1.4955 R2.5000
            
            G02 X1.0439 Y1.3821 R1.7319
            
            G02 X1.1995 Y1.2494 R1.7319
            G03 X4.6624 Y4.8560 R2.5000
            G03 X4.0575 Y5.3718 R6.7319
            G03 X1.0439 Y1.3821 R2.5000
            
            G02 X1.1995 Y1.2494 R1.7319
            
            G02 X1.3384 Y1.0993 R1.7319
            G03 X5.2023 Y4.2726 R2.5000
            G03 X4.6624 Y4.8560 R6.7319
            G03 X1.1995 Y1.2494 R2.5000
            
            G02 X1.3384 Y1.0993 R1.7319
            
            G02 X1.4586 Y0.9338 R1.7319
            G03 X5.6697 Y3.6296 R2.5000
            G03 X5.2023 Y4.2726 R6.7319
            G03 X1.3384 Y1.0993 R2.5000
            
            G02 X1.4586 Y0.9338 R1.7319
            
            G02 X1.5585 Y0.7554 R1.7319
            G03 X6.0580 Y2.9360 R2.5000
            G03 X5.6697 Y3.6296 R6.7319
            G03 X1.4586 Y0.9338 R2.5000
            
            G02 X1.5585 Y0.7554 R1.7319
            
            G02 X1.6367 Y0.5664 R1.7319
            G03 X6.3618 Y2.2014 R2.5000
            G03 X6.0580 Y2.9360 R6.7319
            G03 X1.5585 Y0.7554 R2.5000
            
            G02 X1.6367 Y0.5664 R1.7319
            
            G02 X1.6920 Y0.3696 R1.7319
            G03 X6.5769 Y1.4362 R2.5000
            G03 X6.3618 Y2.2014 R6.7319
            G03 X1.6367 Y0.5664 R2.5000
            
            G02 X1.6920 Y0.3696 R1.7319
            
            G02 X1.7238 Y0.1675 R1.7319
            G03 X6.7004 Y0.6509 R2.5000
            G03 X6.5769 Y1.4362 R6.7319
            G03 X1.6920 Y0.3696 R2.5000
            
            G02 X1.7238 Y0.1675 R1.7319
            
            G02 X1.7315 Y-0.0368 R1.7319
            G03 X6.7304 Y-0.1435 R2.5000
            G03 X6.7004 Y0.6509 R6.7319
            G03 X1.7238 Y0.1675 R2.5000
            
            G02 X1.7315 Y-0.0368 R1.7319
            
            G02 X1.7151 Y-0.2407 R1.7319
            G03 X6.6665 Y-0.9358 R2.5000
            G03 X6.7304 Y-0.1435 R6.7319
            G03 X1.7315 Y-0.0368 R2.5000
            
            G02 X1.7151 Y-0.2407 R1.7319
            
            G02 X1.6747 Y-0.4412 R1.7319
            G03 X6.5097 Y-1.7151 R2.5000
            G03 X6.6665 Y-0.9358 R6.7319
            G03 X1.7151 Y-0.2407 R2.5000
            
            G02 X1.6747 Y-0.4412 R1.7319
            
            G02 X1.6721 Y-0.4509 R1.7319
            G03 X6.4997 Y-1.7529 R2.5000
            G03 X6.5097 Y-1.7151 R6.7319
            G03 X1.6747 Y-0.4412 R2.5000
            G02 X1.6721 Y-0.4509 R1.7319
    (---trichoidal arc slot end---)
    (---trichoidal arc slot start---)
    (---description---)
    (Calculates and prints to a txt file the trichoidal tool path in G code of a counter clockwise arc.)
    (returns last position of cutter and end position of arc.)
    (refer to "PRT20210421001 Trichoidal Arc Calculator", "MEM20210522001 Trichoidal Arc", "MEM20210429002 Trichoidal Notes")
    (start and end points are located at slot arc center points.)
    (assumes that cutter is at cutting depth.)
    (does not return to safe z.)
    (does not set cutting feed.)
    (---parameter---)
    (start: X4.086 Y-1.102)
    (end: X1.189 Y-3.321)
    (step over: 0.500)                     
    (width of slot: 6.000) 
    (slot radius : 3.000)                  
    (cutter diameter: 1.000)        
    (position of cutter: X1.6721 Y-0.4509) 
    (first slot: False)              
    (last slot: False)                
    (clockwise : True)
    (acute angle: True)
    
            G02 X1.6439 Y-0.5292 R0.5000
            G03 X6.1885 Y-2.6140 R2.5000
            G03 X6.4997 Y-1.7529 R5.5000
            G03 X1.6721 Y-0.4509 R2.5000
            
            G02 X1.6439 Y-0.5292 R0.5000
            
            G02 X1.6030 Y-0.6017 R0.5000
            G03 X5.7388 Y-3.4116 R2.5000
            G03 X6.1885 Y-2.6140 R5.5000
            G03 X1.6439 Y-0.5292 R2.5000
            
            G02 X1.6030 Y-0.6017 R0.5000
            
            G02 X1.5506 Y-0.6664 R0.5000
            G03 X5.1630 Y-4.1234 R2.5000
            G03 X5.7388 Y-3.4116 R5.5000
            G03 X1.6030 Y-0.6017 R2.5000
            
            G02 X1.5506 Y-0.6664 R0.5000
            
            G02 X1.4883 Y-0.7215 R0.5000
            G03 X4.4770 Y-4.7299 R2.5000
            G03 X5.1630 Y-4.1234 R5.5000
            G03 X1.5506 Y-0.6664 R2.5000
            
            G02 X1.4883 Y-0.7215 R0.5000
            
            G02 X1.4176 Y-0.7656 R0.5000
            G03 X3.7000 Y-5.2143 R2.5000
            G03 X4.4770 Y-4.7299 R5.5000
            G03 X1.4883 Y-0.7215 R2.5000
            
            G02 X1.4176 Y-0.7656 R0.5000
            
            G02 X1.3407 Y-0.7973 R0.5000
            G03 X2.8534 Y-5.5629 R2.5000
            G03 X3.7000 Y-5.2143 R5.5000
            G03 X1.4176 Y-0.7656 R2.5000
            
            G02 X1.3407 Y-0.7973 R0.5000
            
            G02 X1.2595 Y-0.8158 R0.5000
            G03 X1.9607 Y-5.7664 R2.5000
            G03 X2.8534 Y-5.5629 R5.5000
            G03 X1.3407 Y-0.7973 R2.5000
            
            G02 X1.2595 Y-0.8158 R0.5000
            
            G02 X1.1894 Y-0.8207 R0.5000
            G03 X1.1894 Y-5.8207 R2.5000
            G03 X1.9607 Y-5.7664 R5.5000
            G03 X1.2595 Y-0.8158 R2.5000
            G02 X1.1894 Y-0.8207 R0.5000
    (---trichoidal arc slot end---)
    
    (---trichoidal linear slot start---)                                                                                                                                                                                                                     
    (---description---)
    (Calculates and prints to a txt file the trichoidal tool path in G code of a straight slot.)                                                                                                         
    (returns last position of cutter and end position of slot)
    (start and end points are located along slot arc center/neutral axis)
    (assumes that cutter is at cutting depth)
    (does NOT return to safe z)
    (---parameters---)                                                                                                          
    (start: X1.189 Y-3.321)
    (end: X0.100 Y-3.321)
    (step over: 0.500)
    (width of slot: 6.000)                                                                                            
    (cutter diameter: 1.000)
    (position of cutter: X1.1894 Y-0.8207)
    (first slot: False)
    (last slot: True)                                                                                                  
    
    G1 X0.6894 Y-0.8207
    G03 X0.6894 Y-5.8207 R2.5000
    G1 X1.1894 Y-5.8207
    G03 X1.1894 y-0.8207 R2.5000
    
    G1 X0.1894 Y-0.8207
    G03 X0.1894 Y-5.8207 R2.5000
    G1 X0.6894 Y-5.8207
    G03 X0.6894 y-0.8207 R2.5000
    
    G1 X0.1000 Y-0.8207
    G03 X0.1000 Y-5.8207 R2.5000
    G1 X0.1894 Y-5.8207
    G03 X0.1894 y-3.3207 R1.2500
    G1 X0.1000 Y-3.3207
    (---trichoidal linear slot end---)
    
    G0 Z6.0000				(Rapid to safe height)
    G0 X6.0000 Y-0.8207                 (Rapid to start point)
    G0 Z-6.0000				(Rapid to cutting height)
    F181.1     (set cutting feed)
    
    (---toolpath_data_frame start---)
    (---description---)
    (Imports a 2D dataframe from an excel file, calculates the toolpath adjusted for offset and tool diameter and prints to a txt file the single or trichoidal tool path in G code.)
    (returns last position of cutter and end position of arc.)
    (refer to "ALG20220329001 Toolpath Data Frame Algorithm")
    (start and end points are located at slot arc center points.)
    (assumes that cutter is at cutting depth.)
    (does not return to safe z.)
    (does not set cutting feed.)
    (---parameter---)            
    (cutter diameter: 1.000)        
    (offset: 0.100)
    (excel_file: vector-01.xlsx)
    (sheet: Sheet12)
    G1 X-1.1894 Y-0.8207 F109
G02 X-1.6722 Y-0.4509 R0.5000 F109
G02 X1.6722 Y-0.4509 R-1.7319 F109
G02 X1.1894 Y-0.8207 R0.5000 F109
G1 X-1.1894 Y-0.8207 F109
G02 X-1.6722 Y-0.4509 R0.5000 F109
G02 X1.6722 Y-0.4509 R-1.7319 F109
G02 X1.1894 Y-0.8207 R0.5000 F109
G1 X-1.1894 Y-0.8207 F109
G02 X-1.6722 Y-0.4509 R0.5000 F109
G02 X1.6722 Y-0.4509 R-1.7319 F109
G02 X1.1894 Y-0.8207 R0.5000 F109
G1 X0.1000 Y-0.8207 F109

    G0 Z6.0000				(Rapid to safe height)
    G0 X0 Y0                 (Rapid to zero point)
    G92 X7.9638 Y0       (Offset datum)
    G0 X6.0000 Y-3.3207                 (Rapid to start point)
    G0 Z-6.0000				(Rapid to cutting height)
    F181.1     (set cutting feed)
    
    (---toolpath_data_frame start---)
    (---description---)
    (Imports a 2D dataframe from an excel file, calculates the toolpath adjusted for offset and tool diameter and prints to a txt file the single or trichoidal tool path in G code.)
    (returns last position of cutter and end position of arc.)
    (refer to "ALG20220329001 Toolpath Data Frame Algorithm")
    (start and end points are located at slot arc center points.)
    (assumes that cutter is at cutting depth.)
    (does not return to safe z.)
    (does not set cutting feed.)
    (---parameter---)            
    (cutter diameter: 1.000)        
    (offset: 0.100)
    (excel_file: vector-01.xlsx)
    (sheet: Sheet10)
    
    (---trichoidal linear slot start---)                                                                                                                                                                                                                     
    (---description---)
    (Calculates and prints to a txt file the trichoidal tool path in G code of a straight slot.)                                                                                                         
    (returns last position of cutter and end position of slot)
    (start and end points are located along slot arc center/neutral axis)
    (assumes that cutter is at cutting depth)
    (does NOT return to safe z)
    (---parameters---)                                                                                                          
    (start: X6.000 Y-3.321)
    (end: X-1.189 Y-3.321)
    (step over: 0.500)
    (width of slot: 6.000)                                                                                            
    (cutter diameter: 1.000)
    (position of cutter: X6.0000 Y-3.3207)
    (first slot: True)
    (last slot: False)                                                                                                  
    
    G03 X6.0000 Y-0.8207 R1.2500
    
    G1 X5.5000 Y-0.8207
    G03 X5.5000 Y-5.8207 R2.5000
    G1 X6.0000 Y-5.8207
    G03 X6.0000 y-0.8207 R2.5000
    
    G1 X5.0000 Y-0.8207
    G03 X5.0000 Y-5.8207 R2.5000
    G1 X5.5000 Y-5.8207
    G03 X5.5000 y-0.8207 R2.5000
    
    G1 X4.5000 Y-0.8207
    G03 X4.5000 Y-5.8207 R2.5000
    G1 X5.0000 Y-5.8207
    G03 X5.0000 y-0.8207 R2.5000
    
    G1 X4.0000 Y-0.8207
    G03 X4.0000 Y-5.8207 R2.5000
    G1 X4.5000 Y-5.8207
    G03 X4.5000 y-0.8207 R2.5000
    
    G1 X3.5000 Y-0.8207
    G03 X3.5000 Y-5.8207 R2.5000
    G1 X4.0000 Y-5.8207
    G03 X4.0000 y-0.8207 R2.5000
    
    G1 X3.0000 Y-0.8207
    G03 X3.0000 Y-5.8207 R2.5000
    G1 X3.5000 Y-5.8207
    G03 X3.5000 y-0.8207 R2.5000
    
    G1 X2.5000 Y-0.8207
    G03 X2.5000 Y-5.8207 R2.5000
    G1 X3.0000 Y-5.8207
    G03 X3.0000 y-0.8207 R2.5000
    
    G1 X2.0000 Y-0.8207
    G03 X2.0000 Y-5.8207 R2.5000
    G1 X2.5000 Y-5.8207
    G03 X2.5000 y-0.8207 R2.5000
    
    G1 X1.5000 Y-0.8207
    G03 X1.5000 Y-5.8207 R2.5000
    G1 X2.0000 Y-5.8207
    G03 X2.0000 y-0.8207 R2.5000
    
    G1 X1.0000 Y-0.8207
    G03 X1.0000 Y-5.8207 R2.5000
    G1 X1.5000 Y-5.8207
    G03 X1.5000 y-0.8207 R2.5000
    
    G1 X0.5000 Y-0.8207
    G03 X0.5000 Y-5.8207 R2.5000
    G1 X1.0000 Y-5.8207
    G03 X1.0000 y-0.8207 R2.5000
    
    G1 X0.0000 Y-0.8207
    G03 X-0.0000 Y-5.8207 R2.5000
    G1 X0.5000 Y-5.8207
    G03 X0.5000 y-0.8207 R2.5000
    
    G1 X-0.5000 Y-0.8207
    G03 X-0.5000 Y-5.8207 R2.5000
    G1 X-0.0000 Y-5.8207
    G03 X0.0000 y-0.8207 R2.5000
    
    G1 X-1.0000 Y-0.8207
    G03 X-1.0000 Y-5.8207 R2.5000
    G1 X-0.5000 Y-5.8207
    G03 X-0.5000 y-0.8207 R2.5000
    
    G1 X-1.1894 Y-0.8207
    G03 X-1.1894 Y-5.8207 R2.5000
    G1 X-1.0000 Y-5.8207
    G03 X-1.0000 y-0.8207 R2.5000
    G1 X-1.1894 Y-0.8207
    (---trichoidal linear slot end---)
    (---trichoidal arc slot start---)
    (---description---)
    (Calculates and prints to a txt file the trichoidal tool path in G code of a counter clockwise arc.)
    (returns last position of cutter and end position of arc.)
    (refer to "PRT20210421001 Trichoidal Arc Calculator", "MEM20210522001 Trichoidal Arc", "MEM20210429002 Trichoidal Notes")
    (start and end points are located at slot arc center points.)
    (assumes that cutter is at cutting depth.)
    (does not return to safe z.)
    (does not set cutting feed.)
    (---parameter---)
    (start: X-1.189 Y-3.321)
    (end: X-4.086 Y-1.102)
    (step over: 0.500)                     
    (width of slot: 6.000) 
    (slot radius : 3.000)                  
    (cutter diameter: 1.000)        
    (position of cutter: X-1.1894 Y-0.8207) 
    (first slot: False)              
    (last slot: False)                
    (clockwise : True)
    (acute angle: True)
    
            G02 X-1.2723 Y-0.8138 R0.5000
            G03 X-2.1018 Y-5.7445 R2.5000
            G03 X-1.1894 Y-5.8207 R5.5000
            G03 X-1.1894 Y-0.8207 R2.5000
            
            G02 X-1.2723 Y-0.8138 R0.5000
            
            G02 X-1.3530 Y-0.7932 R0.5000
            G03 X-2.9890 Y-5.5180 R2.5000
            G03 X-2.1018 Y-5.7445 R5.5000
            G03 X-1.2723 Y-0.8138 R2.5000
            
            G02 X-1.3530 Y-0.7932 R0.5000
            
            G02 X-1.4291 Y-0.7595 R0.5000
            G03 X-3.8262 Y-5.1474 R2.5000
            G03 X-2.9890 Y-5.5180 R5.5000
            G03 X-1.3530 Y-0.7932 R2.5000
            
            G02 X-1.4291 Y-0.7595 R0.5000
            
            G02 X-1.4986 Y-0.7136 R0.5000
            G03 X-4.5904 Y-4.6431 R2.5000
            G03 X-3.8262 Y-5.1474 R5.5000
            G03 X-1.4291 Y-0.7595 R2.5000
            
            G02 X-1.4986 Y-0.7136 R0.5000
            
            G02 X-1.5595 Y-0.6569 R0.5000
            G03 X-5.2604 Y-4.0190 R2.5000
            G03 X-4.5904 Y-4.6431 R5.5000
            G03 X-1.4986 Y-0.7136 R2.5000
            
            G02 X-1.5595 Y-0.6569 R0.5000
            
            G02 X-1.6101 Y-0.5909 R0.5000
            G03 X-5.8175 Y-3.2924 R2.5000
            G03 X-5.2604 Y-4.0190 R5.5000
            G03 X-1.5595 Y-0.6569 R2.5000
            
            G02 X-1.6101 Y-0.5909 R0.5000
            
            G02 X-1.6491 Y-0.5173 R0.5000
            G03 X-6.2463 Y-2.4834 R2.5000
            G03 X-5.8175 Y-3.2924 R5.5000
            G03 X-1.6101 Y-0.5909 R2.5000
            
            G02 X-1.6491 Y-0.5173 R0.5000
            
            G02 X-1.6721 Y-0.4509 R0.5000
            G03 X-6.4997 Y-1.7529 R2.5000
            G03 X-6.2463 Y-2.4834 R5.5000
            G03 X-1.6491 Y-0.5173 R2.5000
            G02 X-1.6721 Y-0.4509 R0.5000
    (---trichoidal arc slot end---)
    (---trichoidal arc slot start---)
    (---description---)
    (Calculates and prints to a txt file the trichoidal tool path in G code of a counter clockwise arc.)
    (returns last position of cutter and end position of arc.)
    (refer to "PRT20210421001 Trichoidal Arc Calculator", "MEM20210522001 Trichoidal Arc", "MEM20210429002 Trichoidal Notes")
    (start and end points are located at slot arc center points.)
    (assumes that cutter is at cutting depth.)
    (does not return to safe z.)
    (does not set cutting feed.)
    (---parameter---)
    (start: X-4.086 Y-1.102)
    (end: X4.086 Y-1.102)
    (step over: 0.500)                     
    (width of slot: 6.000) 
    (slot radius : 4.232)                  
    (cutter diameter: 1.000)        
    (position of cutter: X-1.6721 Y-0.4509) 
    (first slot: False)              
    (last slot: False)                
    (clockwise : True)
    (acute angle: False)
    
            G02 X-1.7137 Y-0.2506 R1.7319
            G03 X-6.6610 Y-0.9745 R2.5000
            G03 X-6.4997 Y-1.7529 R6.7319
            G03 X-1.6721 Y-0.4509 R2.5000
            
            G02 X-1.7137 Y-0.2506 R1.7319
            
            G02 X-1.7313 Y-0.0469 R1.7319
            G03 X-6.7294 Y-0.1826 R2.5000
            G03 X-6.6610 Y-0.9745 R6.7319
            G03 X-1.7137 Y-0.2506 R2.5000
            
            G02 X-1.7313 Y-0.0469 R1.7319
            
            G02 X-1.7247 Y0.1575 R1.7319
            G03 X-6.7040 Y0.6119 R2.5000
            G03 X-6.7294 Y-0.1826 R6.7319
            G03 X-1.7313 Y-0.0469 R2.5000
            
            G02 X-1.7247 Y0.1575 R1.7319
            
            G02 X-1.6942 Y0.3597 R1.7319
            G03 X-6.5852 Y1.3979 R2.5000
            G03 X-6.7040 Y0.6119 R6.7319
            G03 X-1.7247 Y0.1575 R2.5000
            
            G02 X-1.6942 Y0.3597 R1.7319
            
            G02 X-1.6400 Y0.5569 R1.7319
            G03 X-6.3745 Y2.1644 R2.5000
            G03 X-6.5852 Y1.3979 R6.7319
            G03 X-1.6942 Y0.3597 R2.5000
            
            G02 X-1.6400 Y0.5569 R1.7319
            
            G02 X-1.5629 Y0.7463 R1.7319
            G03 X-6.0749 Y2.9007 R2.5000
            G03 X-6.3745 Y2.1644 R6.7319
            G03 X-1.6400 Y0.5569 R2.5000
            
            G02 X-1.5629 Y0.7463 R1.7319
            
            G02 X-1.4640 Y0.9254 R1.7319
            G03 X-5.6907 Y3.5966 R2.5000
            G03 X-6.0749 Y2.9007 R6.7319
            G03 X-1.5629 Y0.7463 R2.5000
            
            G02 X-1.4640 Y0.9254 R1.7319
            
            G02 X-1.3448 Y1.0915 R1.7319
            G03 X-5.2271 Y4.2423 R2.5000
            G03 X-5.6907 Y3.5966 R6.7319
            G03 X-1.4640 Y0.9254 R2.5000
            
            G02 X-1.3448 Y1.0915 R1.7319
            
            G02 X-1.2067 Y1.2424 R1.7319
            G03 X-4.6906 Y4.8289 R2.5000
            G03 X-5.2271 Y4.2423 R6.7319
            G03 X-1.3448 Y1.0915 R2.5000
            
            G02 X-1.2067 Y1.2424 R1.7319
            
            G02 X-1.0519 Y1.3760 R1.7319
            G03 X-4.0887 Y5.3481 R2.5000
            G03 X-4.6906 Y4.8289 R6.7319
            G03 X-1.2067 Y1.2424 R2.5000
            
            G02 X-1.0519 Y1.3760 R1.7319
            
            G02 X-0.8824 Y1.4904 R1.7319
            G03 X-3.4298 Y5.7928 R2.5000
            G03 X-4.0887 Y5.3481 R6.7319
            G03 X-1.0519 Y1.3760 R2.5000
            
            G02 X-0.8824 Y1.4904 R1.7319
            
            G02 X-0.7006 Y1.5840 R1.7319
            G03 X-2.7231 Y6.1567 R2.5000
            G03 X-3.4298 Y5.7928 R6.7319
            G03 X-0.8824 Y1.4904 R2.5000
            
            G02 X-0.7006 Y1.5840 R1.7319
            
            G02 X-0.5090 Y1.6555 R1.7319
            G03 X-1.9784 Y6.4347 R2.5000
            G03 X-2.7231 Y6.1567 R6.7319
            G03 X-0.7006 Y1.5840 R2.5000
            
            G02 X-0.5090 Y1.6555 R1.7319
            
            G02 X-0.3103 Y1.7040 R1.7319
            G03 X-1.2061 Y6.6231 R2.5000
            G03 X-1.9784 Y6.4347 R6.7319
            G03 X-0.5090 Y1.6555 R2.5000
            
            G02 X-0.3103 Y1.7040 R1.7319
            
            G02 X-0.1073 Y1.7287 R1.7319
            G03 X-0.4170 Y6.7191 R2.5000
            G03 X-1.2061 Y6.6231 R6.7319
            G03 X-0.3103 Y1.7040 R2.5000
            
            G02 X-0.1073 Y1.7287 R1.7319
            
            G02 X0.0972 Y1.7293 R1.7319
            G03 X0.3779 Y6.7214 R2.5000
            G03 X-0.4170 Y6.7191 R6.7319
            G03 X-0.1073 Y1.7287 R2.5000
            
            G02 X0.0972 Y1.7293 R1.7319
            
            G02 X0.3004 Y1.7058 R1.7319
            G03 X1.1676 Y6.6300 R2.5000
            G03 X0.3779 Y6.7214 R6.7319
            G03 X0.0972 Y1.7293 R2.5000
            
            G02 X0.3004 Y1.7058 R1.7319
            
            G02 X0.4993 Y1.6585 R1.7319
            G03 X1.9409 Y6.4461 R2.5000
            G03 X1.1676 Y6.6300 R6.7319
            G03 X0.3004 Y1.7058 R2.5000
            
            G02 X0.4993 Y1.6585 R1.7319
            
            G02 X0.6913 Y1.5880 R1.7319
            G03 X2.6872 Y6.1724 R2.5000
            G03 X1.9409 Y6.4461 R6.7319
            G03 X0.4993 Y1.6585 R2.5000
            
            G02 X0.6913 Y1.5880 R1.7319
            
            G02 X0.8737 Y1.4955 R1.7319
            G03 X3.3960 Y5.8126 R2.5000
            G03 X2.6872 Y6.1724 R6.7319
            G03 X0.6913 Y1.5880 R2.5000
            
            G02 X0.8737 Y1.4955 R1.7319
            
            G02 X1.0439 Y1.3821 R1.7319
            G03 X4.0575 Y5.3718 R2.5000
            G03 X3.3960 Y5.8126 R6.7319
            G03 X0.8737 Y1.4955 R2.5000
            
            G02 X1.0439 Y1.3821 R1.7319
            
            G02 X1.1995 Y1.2494 R1.7319
            G03 X4.6624 Y4.8560 R2.5000
            G03 X4.0575 Y5.3718 R6.7319
            G03 X1.0439 Y1.3821 R2.5000
            
            G02 X1.1995 Y1.2494 R1.7319
            
            G02 X1.3384 Y1.0993 R1.7319
            G03 X5.2023 Y4.2726 R2.5000
            G03 X4.6624 Y4.8560 R6.7319
            G03 X1.1995 Y1.2494 R2.5000
            
            G02 X1.3384 Y1.0993 R1.7319
            
            G02 X1.4586 Y0.9338 R1.7319
            G03 X5.6697 Y3.6296 R2.5000
            G03 X5.2023 Y4.2726 R6.7319
            G03 X1.3384 Y1.0993 R2.5000
            
            G02 X1.4586 Y0.9338 R1.7319
            
            G02 X1.5585 Y0.7554 R1.7319
            G03 X6.0580 Y2.9360 R2.5000
            G03 X5.6697 Y3.6296 R6.7319
            G03 X1.4586 Y0.9338 R2.5000
            
            G02 X1.5585 Y0.7554 R1.7319
            
            G02 X1.6367 Y0.5664 R1.7319
            G03 X6.3618 Y2.2014 R2.5000
            G03 X6.0580 Y2.9360 R6.7319
            G03 X1.5585 Y0.7554 R2.5000
            
            G02 X1.6367 Y0.5664 R1.7319
            
            G02 X1.6920 Y0.3696 R1.7319
            G03 X6.5769 Y1.4362 R2.5000
            G03 X6.3618 Y2.2014 R6.7319
            G03 X1.6367 Y0.5664 R2.5000
            
            G02 X1.6920 Y0.3696 R1.7319
            
            G02 X1.7238 Y0.1675 R1.7319
            G03 X6.7004 Y0.6509 R2.5000
            G03 X6.5769 Y1.4362 R6.7319
            G03 X1.6920 Y0.3696 R2.5000
            
            G02 X1.7238 Y0.1675 R1.7319
            
            G02 X1.7315 Y-0.0368 R1.7319
            G03 X6.7304 Y-0.1435 R2.5000
            G03 X6.7004 Y0.6509 R6.7319
            G03 X1.7238 Y0.1675 R2.5000
            
            G02 X1.7315 Y-0.0368 R1.7319
            
            G02 X1.7151 Y-0.2407 R1.7319
            G03 X6.6665 Y-0.9358 R2.5000
            G03 X6.7304 Y-0.1435 R6.7319
            G03 X1.7315 Y-0.0368 R2.5000
            
            G02 X1.7151 Y-0.2407 R1.7319
            
            G02 X1.6747 Y-0.4412 R1.7319
            G03 X6.5097 Y-1.7151 R2.5000
            G03 X6.6665 Y-0.9358 R6.7319
            G03 X1.7151 Y-0.2407 R2.5000
            
            G02 X1.6747 Y-0.4412 R1.7319
            
            G02 X1.6721 Y-0.4509 R1.7319
            G03 X6.4997 Y-1.7529 R2.5000
            G03 X6.5097 Y-1.7151 R6.7319
            G03 X1.6747 Y-0.4412 R2.5000
            G02 X1.6721 Y-0.4509 R1.7319
    (---trichoidal arc slot end---)
    (---trichoidal arc slot start---)
    (---description---)
    (Calculates and prints to a txt file the trichoidal tool path in G code of a counter clockwise arc.)
    (returns last position of cutter and end position of arc.)
    (refer to "PRT20210421001 Trichoidal Arc Calculator", "MEM20210522001 Trichoidal Arc", "MEM20210429002 Trichoidal Notes")
    (start and end points are located at slot arc center points.)
    (assumes that cutter is at cutting depth.)
    (does not return to safe z.)
    (does not set cutting feed.)
    (---parameter---)
    (start: X4.086 Y-1.102)
    (end: X1.189 Y-3.321)
    (step over: 0.500)                     
    (width of slot: 6.000) 
    (slot radius : 3.000)                  
    (cutter diameter: 1.000)        
    (position of cutter: X1.6721 Y-0.4509) 
    (first slot: False)              
    (last slot: False)                
    (clockwise : True)
    (acute angle: True)
    
            G02 X1.6439 Y-0.5292 R0.5000
            G03 X6.1885 Y-2.6140 R2.5000
            G03 X6.4997 Y-1.7529 R5.5000
            G03 X1.6721 Y-0.4509 R2.5000
            
            G02 X1.6439 Y-0.5292 R0.5000
            
            G02 X1.6030 Y-0.6017 R0.5000
            G03 X5.7388 Y-3.4116 R2.5000
            G03 X6.1885 Y-2.6140 R5.5000
            G03 X1.6439 Y-0.5292 R2.5000
            
            G02 X1.6030 Y-0.6017 R0.5000
            
            G02 X1.5506 Y-0.6664 R0.5000
            G03 X5.1630 Y-4.1234 R2.5000
            G03 X5.7388 Y-3.4116 R5.5000
            G03 X1.6030 Y-0.6017 R2.5000
            
            G02 X1.5506 Y-0.6664 R0.5000
            
            G02 X1.4883 Y-0.7215 R0.5000
            G03 X4.4770 Y-4.7299 R2.5000
            G03 X5.1630 Y-4.1234 R5.5000
            G03 X1.5506 Y-0.6664 R2.5000
            
            G02 X1.4883 Y-0.7215 R0.5000
            
            G02 X1.4176 Y-0.7656 R0.5000
            G03 X3.7000 Y-5.2143 R2.5000
            G03 X4.4770 Y-4.7299 R5.5000
            G03 X1.4883 Y-0.7215 R2.5000
            
            G02 X1.4176 Y-0.7656 R0.5000
            
            G02 X1.3407 Y-0.7973 R0.5000
            G03 X2.8534 Y-5.5629 R2.5000
            G03 X3.7000 Y-5.2143 R5.5000
            G03 X1.4176 Y-0.7656 R2.5000
            
            G02 X1.3407 Y-0.7973 R0.5000
            
            G02 X1.2595 Y-0.8158 R0.5000
            G03 X1.9607 Y-5.7664 R2.5000
            G03 X2.8534 Y-5.5629 R5.5000
            G03 X1.3407 Y-0.7973 R2.5000
            
            G02 X1.2595 Y-0.8158 R0.5000
            
            G02 X1.1894 Y-0.8207 R0.5000
            G03 X1.1894 Y-5.8207 R2.5000
            G03 X1.9607 Y-5.7664 R5.5000
            G03 X1.2595 Y-0.8158 R2.5000
            G02 X1.1894 Y-0.8207 R0.5000
    (---trichoidal arc slot end---)
    
    (---trichoidal linear slot start---)                                                                                                                                                                                                                     
    (---description---)
    (Calculates and prints to a txt file the trichoidal tool path in G code of a straight slot.)                                                                                                         
    (returns last position of cutter and end position of slot)
    (start and end points are located along slot arc center/neutral axis)
    (assumes that cutter is at cutting depth)
    (does NOT return to safe z)
    (---parameters---)                                                                                                          
    (start: X1.189 Y-3.321)
    (end: X0.100 Y-3.321)
    (step over: 0.500)
    (width of slot: 6.000)                                                                                            
    (cutter diameter: 1.000)
    (position of cutter: X1.1894 Y-0.8207)
    (first slot: False)
    (last slot: True)                                                                                                  
    
    G1 X0.6894 Y-0.8207
    G03 X0.6894 Y-5.8207 R2.5000
    G1 X1.1894 Y-5.8207
    G03 X1.1894 y-0.8207 R2.5000
    
    G1 X0.1894 Y-0.8207
    G03 X0.1894 Y-5.8207 R2.5000
    G1 X0.6894 Y-5.8207
    G03 X0.6894 y-0.8207 R2.5000
    
    G1 X0.1000 Y-0.8207
    G03 X0.1000 Y-5.8207 R2.5000
    G1 X0.1894 Y-5.8207
    G03 X0.1894 y-3.3207 R1.2500
    G1 X0.1000 Y-3.3207
    (---trichoidal linear slot end---)
    
    G0 Z6.0000				(Rapid to safe height)
    G0 X6.0000 Y-0.8207                 (Rapid to start point)
    G0 Z-6.0000				(Rapid to cutting height)
    F181.1     (set cutting feed)
    
    (---toolpath_data_frame start---)
    (---description---)
    (Imports a 2D dataframe from an excel file, calculates the toolpath adjusted for offset and tool diameter and prints to a txt file the single or trichoidal tool path in G code.)
    (returns last position of cutter and end position of arc.)
    (refer to "ALG20220329001 Toolpath Data Frame Algorithm")
    (start and end points are located at slot arc center points.)
    (assumes that cutter is at cutting depth.)
    (does not return to safe z.)
    (does not set cutting feed.)
    (---parameter---)            
    (cutter diameter: 1.000)        
    (offset: 0.100)
    (excel_file: vector-01.xlsx)
    (sheet: Sheet12)
    G1 X-1.1894 Y-0.8207 F109
G02 X-1.6722 Y-0.4509 R0.5000 F109
G02 X1.6722 Y-0.4509 R-1.7319 F109
G02 X1.1894 Y-0.8207 R0.5000 F109
G1 X-1.1894 Y-0.8207 F109
G02 X-1.6722 Y-0.4509 R0.5000 F109
G02 X1.6722 Y-0.4509 R-1.7319 F109
G02 X1.1894 Y-0.8207 R0.5000 F109
G1 X-1.1894 Y-0.8207 F109
G02 X-1.6722 Y-0.4509 R0.5000 F109
G02 X1.6722 Y-0.4509 R-1.7319 F109
G02 X1.1894 Y-0.8207 R0.5000 F109
G1 X0.1000 Y-0.8207 F109

G0 Z6.0000				(Rapid to safe height)
G0 X0 Y0                 (Rapid to zero point)
G92 X-15.9276 Y0       (Offset datum)

(===Main End===)

(end block)
G0 Z6.0000				(Rapid to safe height)
G0 X0.0000 Y0.0000        (Rapid to end point)
M5						    (Spindle Stop)
M30					        (End & Rewind)
