
    (==========================)    
    (file_name: GCE20220414-221600 Rev01 Test-01)
    (==========================)  

    (---Description---)
    (This program calculates the tool path to ...)
(Assumes climb milling.)

    (TOOL/MILL, dia: 3.000, LOC:3.000, 4.0 Flute, carbide, AT)
    (--X origin: center of right most post--)
    (--Y origin: center of right most post--)
    (--Z origin: top surface of vise--)
    (Part material: ABS)
    (G-code is generated using Python script "SRC20210420001 Rev01-01-10-09 G-code Generator (Draft-01).py")

    (---Compiler---)
    (UCCNC v1.2111)\n(DEMO_UC400ETH)

    (---Change History---)
    (NA)    

    (---Bug List---)
    (NA)
    
    (===General variables===)
    (clear z             = 6.000)
    (initial x           = 0.000)
    (initial y           = 0.000)
    (start z             = 0.000)
    (terminal x          = 0.000)
    (terminal y          = 0.000)
    (cut feed            = 181.1)
    (plunge feed         = 27.2)
    (finish feed         = 108.7)
    (spindle speed       = 2900)
    (diameter of cutter  = 3.000)
    (tolerance of cutter = 0.000)
    (effective diameter  = 3.000)
    (Surface Speed       = 15 m/min)
    (Chipload            = 0.007 mm/tooth)
    
    (start block)
    G90			   (Absolute XYZ)
    G21G64G17	   (mm, Best Speed Path, XY Plane)
    M3 S2900.0      (Spindle Speed)
    G0 Z6.0000   (Go to safe height)
    G0 X0.0000 Y0.0000   (Rapid to start point)

    (===Main Start===)
    
    (---spiral surface start---)
    
    (---description---)
    (calculates and prints to a txt file the tool path in G code of a spiral boss.)
    (assumes origin at center of hole.)
    (assumes z=0 at top surface.)
    (assumes existing clearance around material.)
    (return to safe z after surfacing.)
    
    (---parameters---)
    (origin: X-6.000 Y-22.000)
    (boss start diameter: 25.000)
    (boss end diameter: 7.000)
    (depth of cut: -6.000)
    (diameter of cutter: 3.000)
    (step: 1.000)
    (plunge feed: 27.2)
    (cutting feed: 181.0)
    (safe Z: 6.000)
    (z_bias_mode = False)
    (z_backlash_bias = 0.000)
    
    G0 Z6.0000   (Go to safe height)
    G0 X8.0000 Y-22.0000   (Rapid to start point)
    F27.2      (set plunge feed)
    
    G1 Z-6.0000  (go to depth of cut. Use absolute convention)
    F181.0    (set cutting feed)
    
    G2 X7.4827 Y-25.6127 R13.9583
    
    G2 X6.0522 Y-28.9583 R13.9167
    
    G2 X3.8111 Y-31.8111 R13.8750
    
    G2 X0.9167 Y-33.9800 R13.8333
    
    G2 X-2.4305 Y-35.3217 R13.7917
    
    G2 X-6.0000 Y-35.7500 R13.7500
    
    G2 X-9.5480 Y-35.2412 R13.7083
    
    G2 X-12.8333 Y-33.8357 R13.6667
    
    G2 X-15.6343 Y-31.6343 R13.6250
    
    G2 X-17.7635 Y-28.7917 R13.5833
    
    G2 X-19.0802 Y-25.5048 R13.5417
    
    G2 X-19.5000 Y-22.0000 R13.5000
    
    G2 X-18.9998 Y-18.5167 R13.4583
    
    G2 X-17.6192 Y-15.2917 R13.4167
    
    G2 X-15.4576 Y-12.5424 R13.3750
    
    G2 X-12.6667 Y-10.4530 R13.3333
    
    G2 X-9.4401 Y-9.1612 R13.2917
    
    G2 X-6.0000 Y-8.7500 R13.2500
    
    G2 X-2.5814 Y-9.2417 R13.2083
    
    G2 X0.5833 Y-10.5973 R13.1667
    
    G2 X3.2808 Y-12.7192 R13.1250
    
    G2 X5.3305 Y-15.4583 R13.0833
    
    G2 X6.5973 Y-18.6246 R13.0417
    
    G2 X7.0000 Y-22.0000 R13.0000
    
    G2 X6.5168 Y-25.3539 R12.9583
    
    G2 X5.1862 Y-28.4583 R12.9167
    
    G2 X3.1040 Y-31.1040 R12.8750
    
    G2 X0.4167 Y-33.1140 R12.8333
    
    G2 X-2.6893 Y-34.3558 R12.7917
    
    G2 X-6.0000 Y-34.7500 R12.7500
    
    G2 X-9.2892 Y-34.2753 R12.7083
    
    G2 X-12.3333 Y-32.9697 R12.6667
    
    G2 X-14.9272 Y-30.9272 R12.6250
    
    G2 X-16.8975 Y-28.2917 R12.5833
    
    G2 X-18.1143 Y-25.2460 R12.5417
    
    G2 X-18.5000 Y-22.0000 R12.5000
    
    G2 X-18.0338 Y-18.7755 R12.4583
    
    G2 X-16.7531 Y-15.7917 R12.4167
    
    G2 X-14.7504 Y-13.2496 R12.3750
    
    G2 X-12.1667 Y-11.3190 R12.3333
    
    G2 X-9.1813 Y-10.1272 R12.2917
    
    G2 X-6.0000 Y-9.7500 R12.2500
    
    G2 X-2.8403 Y-10.2077 R12.2083
    
    G2 X0.0833 Y-11.4634 R12.1667
    
    G2 X2.5737 Y-13.4263 R12.1250
    
    G2 X4.4645 Y-15.9583 R12.0833
    
    G2 X5.6314 Y-18.8834 R12.0417
    
    G2 X6.0000 Y-22.0000 R12.0000
    
    G2 X5.5509 Y-25.0950 R11.9583
    
    G2 X4.3201 Y-27.9583 R11.9167
    
    G2 X2.3969 Y-30.3969 R11.8750
    
    G2 X-0.0833 Y-32.2480 R11.8333
    
    G2 X-2.9481 Y-33.3899 R11.7917
    
    G2 X-6.0000 Y-33.7500 R11.7500
    
    G2 X-9.0303 Y-33.3094 R11.7083
    
    G2 X-11.8333 Y-32.1036 R11.6667
    
    G2 X-14.2201 Y-30.2201 R11.6250
    
    G2 X-16.0315 Y-27.7917 R11.5833
    
    G2 X-17.1484 Y-24.9872 R11.5417
    
    G2 X-17.5000 Y-22.0000 R11.5000
    
    G2 X-17.0679 Y-19.0344 R11.4583
    
    G2 X-15.8871 Y-16.2917 R11.4167
    
    G2 X-14.0433 Y-13.9567 R11.3750
    
    G2 X-11.6667 Y-12.1850 R11.3333
    
    G2 X-8.9225 Y-11.0931 R11.2917
    
    G2 X-6.0000 Y-10.7500 R11.2500
    
    G2 X-3.0991 Y-11.1736 R11.2083
    
    G2 X-0.4167 Y-12.3294 R11.1667
    
    G2 X1.8666 Y-14.1334 R11.1250
    
    G2 X3.5984 Y-16.4583 R11.0833
    
    G2 X4.6654 Y-19.1422 R11.0417
    
    G2 X5.0000 Y-22.0000 R11.0000
    
    G2 X4.5849 Y-24.8362 R10.9583
    
    G2 X3.4541 Y-27.4583 R10.9167
    
    G2 X1.6898 Y-29.6898 R10.8750
    
    G2 X-0.5833 Y-31.3819 R10.8333
    
    G2 X-3.2069 Y-32.4239 R10.7917
    
    G2 X-6.0000 Y-32.7500 R10.7500
    
    G2 X-8.7715 Y-32.3435 R10.7083
    
    G2 X-11.3333 Y-31.2376 R10.6667
    
    G2 X-13.5130 Y-29.5130 R10.6250
    
    G2 X-15.1654 Y-27.2917 R10.5833
    
    G2 X-16.1825 Y-24.7284 R10.5417
    
    G2 X-16.5000 Y-22.0000 R10.5000
    
    G2 X-16.1020 Y-19.2932 R10.4583
    
    G2 X-15.0211 Y-16.7917 R10.4167
    
    G2 X-13.3362 Y-14.6638 R10.3750
    
    G2 X-11.1667 Y-13.0511 R10.3333
    
    G2 X-8.6637 Y-12.0590 R10.2917
    
    G2 X-6.0000 Y-11.7500 R10.2500
    
    G2 X-3.3579 Y-12.1395 R10.2083
    
    G2 X-0.9167 Y-13.1954 R10.1667
    
    G2 X1.1595 Y-14.8405 R10.1250
    
    G2 X2.7324 Y-16.9583 R10.0833
    
    G2 X3.6995 Y-19.4010 R10.0417
    
    G2 X4.0000 Y-22.0000 R10.0000
    
    G2 X3.6190 Y-24.5774 R9.9583
    
    G2 X2.5881 Y-26.9583 R9.9167
    
    G2 X0.9827 Y-28.9827 R9.8750
    
    G2 X-1.0833 Y-30.5159 R9.8333
    
    G2 X-3.4657 Y-31.4580 R9.7917
    
    G2 X-6.0000 Y-31.7500 R9.7500
    
    G2 X-8.5127 Y-31.3775 R9.7083
    
    G2 X-10.8333 Y-30.3716 R9.6667
    
    G2 X-12.8059 Y-28.8059 R9.6250
    
    G2 X-14.2994 Y-26.7917 R9.5833
    
    G2 X-15.2165 Y-24.4696 R9.5417
    
    G2 X-15.5000 Y-22.0000 R9.5000
    
    G2 X-15.1360 Y-19.5520 R9.4583
    
    G2 X-14.1551 Y-17.2917 R9.4167
    
    G2 X-12.6291 Y-15.3709 R9.3750
    
    G2 X-10.6667 Y-13.9171 R9.3333
    
    G2 X-8.4049 Y-13.0249 R9.2917
    
    G2 X-6.0000 Y-12.7500 R9.2500
    
    G2 X-3.6167 Y-13.1054 R9.2083
    
    G2 X-1.4167 Y-14.0614 R9.1667
    
    G2 X0.4523 Y-15.5477 R9.1250
    
    G2 X1.8664 Y-17.4583 R9.0833
    
    G2 X2.7336 Y-19.6598 R9.0417
    
    G2 X3.0000 Y-22.0000 R9.0000
    
    G2 X2.6531 Y-24.3186 R8.9583
    
    G2 X1.7221 Y-26.4583 R8.9167
    
    G2 X0.2756 Y-28.2756 R8.8750
    
    G2 X-1.5833 Y-29.6499 R8.8333
    
    G2 X-3.7245 Y-30.4921 R8.7917
    
    G2 X-6.0000 Y-30.7500 R8.7500
    
    G2 X-8.2539 Y-30.4116 R8.7083
    
    G2 X-10.3333 Y-29.5056 R8.6667
    
    G2 X-12.0988 Y-28.0988 R8.6250
    
    G2 X-13.4334 Y-26.2917 R8.5833
    
    G2 X-14.2506 Y-24.2107 R8.5417
    
    G2 X-14.5000 Y-22.0000 R8.5000
    
    G2 X-14.1701 Y-19.8108 R8.4583
    
    G2 X-13.2890 Y-17.7917 R8.4167
    
    G2 X-11.9220 Y-16.0780 R8.3750
    
    G2 X-10.1667 Y-14.7831 R8.3333
    
    G2 X-8.1460 Y-13.9909 R8.2917
    
    G2 X-6.0000 Y-13.7500 R8.2500
    
    G2 X-3.8755 Y-14.0714 R8.2083
    
    G2 X-1.9167 Y-14.9275 R8.1667
    
    G2 X-0.2548 Y-16.2548 R8.1250
    
    G2 X1.0004 Y-17.9583 R8.0833
    
    G2 X1.7677 Y-19.9187 R8.0417
    
    G2 X2.0000 Y-22.0000 R8.0000
    
    G2 X1.6872 Y-24.0598 R7.9583
    
    G2 X0.8560 Y-25.9583 R7.9167
    
    G2 X-0.4315 Y-27.5685 R7.8750
    
    G2 X-2.0833 Y-28.7839 R7.8333
    
    G2 X-3.9834 Y-29.5262 R7.7917
    
    G2 X-6.0000 Y-29.7500 R7.7500
    
    G2 X-7.9951 Y-29.4457 R7.7083
    
    G2 X-9.8333 Y-28.6395 R7.6667
    
    G2 X-11.3917 Y-27.3917 R7.6250
    
    G2 X-12.5674 Y-25.7917 R7.5833
    
    G2 X-13.2847 Y-23.9519 R7.5417
    
    G2 X-13.5000 Y-22.0000 R7.5000
    
    G2 X-13.2042 Y-20.0696 R7.4583
    
    G2 X-12.4230 Y-18.2917 R7.4167
    
    G2 X-11.2149 Y-16.7851 R7.3750
    
    G2 X-9.6667 Y-15.6491 R7.3333
    
    G2 X-7.8872 Y-14.9568 R7.2917
    
    G2 X-6.0000 Y-14.7500 R7.2500
    
    G2 X-4.1343 Y-15.0373 R7.2083
    
    G2 X-2.4167 Y-15.7935 R7.1667
    
    G2 X-0.9619 Y-16.9619 R7.1250
    
    G2 X0.1343 Y-18.4583 R7.0833
    
    G2 X0.8017 Y-20.1775 R7.0417
    
    G2 X1.0000 Y-22.0000 R7.0000
    
    G2 X0.7212 Y-23.8009 R6.9583
    
    G2 X-0.0100 Y-25.4583 R6.9167
    
    G2 X-1.1386 Y-26.8614 R6.8750
    
    G2 X-2.5833 Y-27.9178 R6.8333
    
    G2 X-4.2422 Y-28.5602 R6.7917
    
    G2 X-6.0000 Y-28.7500 R6.7500
    
    G2 X-7.7362 Y-28.4798 R6.7083
    
    G2 X-9.3333 Y-27.7735 R6.6667
    
    G2 X-10.6846 Y-26.6846 R6.6250
    
    G2 X-11.7013 Y-25.2917 R6.5833
    
    G2 X-12.3188 Y-23.6931 R6.5417
    
    G2 X-12.5000 Y-22.0000 R6.5000
    
    G2 X-12.2383 Y-20.3285 R6.4583
    
    G2 X-11.5570 Y-18.7917 R6.4167
    
    G2 X-10.5078 Y-17.4922 R6.3750
    
    G2 X-9.1667 Y-16.5152 R6.3333
    
    G2 X-7.6284 Y-15.9227 R6.2917
    
    G2 X-6.0000 Y-15.7500 R6.2500
    
    G2 X-4.3932 Y-16.0032 R6.2083
    
    G2 X-2.9167 Y-16.6595 R6.1667
    
    G2 X-1.6690 Y-17.6690 R6.1250
    
    G2 X-0.7317 Y-18.9583 R6.0833
    
    G2 X-0.1642 Y-20.4363 R6.0417
    
    G2 X0.0000 Y-22.0000 R6.0000
    
    G2 X-0.2447 Y-23.5421 R5.9583
    
    G2 X-0.8760 Y-24.9583 R5.9167
    
    G2 X-1.8457 Y-26.1543 R5.8750
    
    G2 X-3.0833 Y-27.0518 R5.8333
    
    G2 X-4.5010 Y-27.5943 R5.7917
    
    G2 X-6.0000 Y-27.7500 R5.7500
    
    G2 X-7.4774 Y-27.5138 R5.7083
    
    G2 X-8.8333 Y-26.9075 R5.6667
    
    G2 X-9.9775 Y-25.9775 R5.6250
    
    G2 X-10.8353 Y-24.7917 R5.5833
    
    G2 X-11.3528 Y-23.4343 R5.5417
    
    G2 X-11.5000 Y-22.0000 R5.5000
    
    G2 X-11.2723 Y-20.5873 R5.4583
    
    G2 X-10.6910 Y-19.2917 R5.4167
    
    G2 X-9.8007 Y-18.1993 R5.3750
    
    G2 X-8.6667 Y-17.3812 R5.3333
    
    G2 X-7.3696 Y-16.8886 R5.2917
    
    G2 X-6.0000 Y-16.7500 R5.2500
    
    G2 X-4.6520 Y-16.9691 R5.2083
    
    G2 X-3.4167 Y-17.5255 R5.1667
    
    G2 X-2.3761 Y-18.3761 R5.1250
    
    G2 X-1.5977 Y-19.4583 R5.0833
    
    G2 X-1.1301 Y-20.6951 R5.0417
    
    G2 X-1.0000 Y-22.0000 R5.0000
    
    G2 X-1.1704 Y-23.2941 R5.0000
    
    G2 X-1.1704 Y-23.2941 I-4.8296 J1.2941 F333
    (finish cut)
    
    G2 X-1.1704 Y-23.2941 I-4.8296 J1.2941 F333
    (finish cut)
    
    G2 X-1.1704 Y-23.2941 I-4.8296 J1.2941 F333
    (finish cut)
    
    (---spiral surface end---)
    
    (===Main End===)

    (end block)
    G0 Z6.0000				(Rapid to safe height)
    G0 X0.0000 Y0.0000        (Rapid to end point)
    M5						    (Spindle Stop)
    M30					        (End & Rewind)
    