
    (==========================)    
    (file_name: GCE20220413-150902 Rev01 Test-01)
    (==========================)  

    (---Description---)
    (This program calculates the tool path to ...)
(Assumes climb milling.)

    (TOOL/MILL, dia: 3.000, LOC:3.000, 4.0 Flute, carbide, AT)
    (--X origin: center of right most post--)
    (--Y origin: center of right most post--)
    (--Z origin: top surface of vise--)
    (Part material: ABS)
    (G-code is generated using Python script "SRC20210420001 Rev01-01-10-09 G-code Generator (Draft-01).py")

    (---Compiler---)
    (UCCNC v1.2111)\n(DEMO_UC400ETH)

    (---Change History---)
    (NA)    

    (---Bug List---)
    (NA)
    
    (===General variables===)
    (clear z             = 6.000)
    (initial x           = 0.000)
    (initial y           = 0.000)
    (start z             = 0.000)
    (terminal x          = 0.000)
    (terminal y          = 0.000)
    (cut feed            = 181.1)
    (plunge feed         = 27.2)
    (finish feed         = 108.7)
    (spindle speed       = 2900)
    (diameter of cutter  = 3.000)
    (tolerance of cutter = 0.000)
    (effective diameter  = 3.000)
    (Surface Speed       = 15 m/min)
    (Chipload            = 0.007 mm/tooth)
    
    (start block)
    G90			   (Absolute XYZ)
    G21G64G17	   (mm, Best Speed Path, XY Plane)
    M3 S2900.0      (Spindle Speed)
    G0 Z6.0000   (Go to safe height)
    G0 X0.0000 Y0.0000   (Rapid to start point)

    (===Main Start===)
    
    (---toolpath_data_frame start---)
    (---description---)
    (Imports a 2D dataframe from an excel file, calculates the toolpath adjusted for offset and tool diameter and prints to a txt file the single or trichoidal tool path in G code.)
    (returns last position of cutter and end position of arc.)
    (refer to "ALG20220329001 Toolpath Data Frame Algorithm")
    (start and end points are located at slot arc center points.)
    (assumes that cutter is at cutting depth.)
    (does not return to safe z.)
    (does not set cutting feed.)
    (---parameter---)            
    (cutter diameter: 3.000)        
    (offset: 0.000)
    (excel_file: vector-02.xlsx)
    (sheet: Sheet12)
    
            G0 Z6.0000				(Rapid to safe height)
            G0 X6.0000 Y-1.8207                 (Rapid to start point)
            G1 Z-6.0000	F27.2000			(Rapid to cutting height)
            F108.7     (set cutting feed)
            G1 X-1.1894 Y-1.8207 F109
G02 X-2.6376 Y-0.7113 R1.5000 F109
G02 X2.6376 Y-0.7113 R-2.7319 F109
G02 X1.1894 Y-1.8207 R1.5000 F109
G1 X-1.1894 Y-1.8207 F109
G02 X-2.6376 Y-0.7113 R1.5000 F109
G02 X2.6376 Y-0.7113 R-2.7319 F109
G02 X1.1894 Y-1.8207 R1.5000 F109
G1 X-1.1894 Y-1.8207 F109
G02 X-2.6376 Y-0.7113 R1.5000 F109
G02 X2.6376 Y-0.7113 R-2.7319 F109
G02 X1.1894 Y-1.8207 R1.5000 F109
G1 X0.1000 Y-1.8207 F109

            G0 Z6.0000				(Rapid to safe height)
            
    (===Main End===)

    (end block)
    G0 Z6.0000				(Rapid to safe height)
    G0 X0.0000 Y0.0000        (Rapid to end point)
    M5						    (Spindle Stop)
    M30					        (End & Rewind)
    